; HEADER_BLOCK_START
; generated by OrcaSlicer 1.8.1 on 2024-05-15 at 16:19:08
; total layer number: 124
; HEADER_BLOCK_END

; THUMBNAIL_BLOCK_START

;
; THUMBNAIL_BLOCK_END

; external perimeters extrusion width = 0.42mm
; perimeters extrusion width = 0.45mm
; infill extrusion width = 0.45mm
; solid infill extrusion width = 0.42mm
; top infill extrusion width = 0.42mm
; support material extrusion width = 0.42mm
; first layer extrusion width = 0.50mm

; EXECUTABLE_BLOCK_START
EXCLUDE_OBJECT_DEFINE NAME=20h150l100wv4_v1.stl_id_0_copy_0 CENTER=150,150 POLYGON=[[75,45.7501],[146,44.2499],[154,44.2499],[225,45.7501],[225,251.75],[158,255.75],[142,255.75],[75,251.75],[75,45.7501]]
M73 P0 R141
;TYPE:Custom
M140 S0
M104 S0 
START_PRINT EXTRUDER_TEMP=220 BED_TEMP=75
G90
G21
M83 ; use relative distances for extrusion
; filament start gcode
M106 S0
;LAYER_CHANGE
;Z:0.3
;HEIGHT:0.3
;BEFORE_LAYER_CHANGE
;0.3
G92 E0

G1 E-.5 F3600
;_SET_FAN_SPEED_CHANGING_LAYER
SET_VELOCITY_LIMIT ACCEL=500 ACCEL_TO_DECEL=250
EXCLUDE_OBJECT_START NAME=20h150l100wv4_v1.stl_id_0_copy_0
G1 Z.4 F15000
G1 X97.671 Y151.4
G1 Z.4
G1 Z.3
G1 E.5 F2400
;TYPE:Support
;WIDTH:0.5
G1 F3000
G1 X90.96 Y151.4 E.35734
G1 X90.96 Y146.1 E.2822
G1 X97.671 Y146.1 E.35734
G1 X97.671 Y151.335 E.27873
G1 X97.279 Y151.008 F15000
G1 F3000
G1 X91.352 Y151.008 E.31559
G1 X91.352 Y146.492 E.24045
G1 X97.279 Y146.492 E.31559
G1 X97.279 Y151.008 E.24045
G1 X96.795 Y150.524 F15000
G1 F3000
G1 X91.836 Y150.524 E.26404
G1 X91.836 Y146.976 E.18891
G1 X96.795 Y146.976 E.26404
G1 X96.795 Y150.524 E.18891
G1 X96.311 Y150.04 F15000
G1 F3000
G1 X92.32 Y150.04 E.2125
G1 X92.32 Y147.46 E.13736
G1 X96.311 Y147.46 E.2125
G1 X96.311 Y150.04 E.13736
G1 X95.827 Y149.556 F15000
G1 F3000
G1 X92.804 Y149.556 E.16095
G1 X92.804 Y147.944 E.08582
G1 X95.827 Y147.944 E.16095
G1 X95.827 Y149.556 E.08582
G1 X95.343 Y149.072 F15000
G1 F3000
G1 X93.288 Y149.072 E.10941
G1 X93.288 Y148.428 E.03428
G1 X95.343 Y148.428 E.10941
G1 X95.343 Y149.072 E.03428
G1 E-.35 F3600
;WIPE_START
G1 F3000
G1 X95.343 Y148.428 E-.09656
G1 X94.987 Y148.428 E-.05344
;WIPE_END
G1 Z.7 F15000
G1 X134.794 Y151.4 Z.7
G1 Z.3
G1 E.5 F2400
G1 F3000
G1 X128.083 Y151.4 E.35734
G1 X128.083 Y146.1 E.2822
G1 X134.794 Y146.1 E.35734
G1 X134.794 Y151.335 E.27873
G1 X134.402 Y151.008 F15000
G1 F3000
G1 X128.475 Y151.008 E.31559
G1 X128.475 Y146.492 E.24045
G1 X134.402 Y146.492 E.31559
G1 X134.402 Y151.008 E.24045
G1 X133.918 Y150.524 F15000
G1 F3000
G1 X128.959 Y150.524 E.26404
G1 X128.959 Y146.976 E.18891
G1 X133.918 Y146.976 E.26404
G1 X133.918 Y150.524 E.18891
G1 X133.434 Y150.04 F15000
G1 F3000
G1 X129.443 Y150.04 E.2125
G1 X129.443 Y147.46 E.13736
G1 X133.434 Y147.46 E.2125
G1 X133.434 Y150.04 E.13736
G1 X132.95 Y149.556 F15000
G1 F3000
G1 X129.927 Y149.556 E.16095
G1 X129.927 Y147.944 E.08582
G1 X132.95 Y147.944 E.16095
G1 X132.95 Y149.556 E.08582
G1 X132.466 Y149.072 F15000
G1 F3000
G1 X130.411 Y149.072 E.10941
G1 X130.411 Y148.428 E.03428
G1 X132.466 Y148.428 E.10941
G1 X132.466 Y149.072 E.03428
G1 E-.35 F3600
;WIPE_START
G1 F3000
G1 X132.466 Y148.428 E-.09656
G1 X132.11 Y148.428 E-.05344
;WIPE_END
G1 Z.7 F15000
G1 X171.917 Y151.4 Z.7
M73 P0 R140
G1 Z.3
G1 E.5 F2400
G1 F3000
G1 X165.206 Y151.4 E.35734
G1 X165.206 Y146.1 E.2822
G1 X171.917 Y146.1 E.35734
G1 X171.917 Y151.335 E.27873
G1 X165.598 Y151.008 F15000
G1 F3000
G1 X165.598 Y146.492 E.24045
G1 X171.525 Y146.492 E.31559
G1 X171.525 Y151.008 E.24045
G1 X165.598 Y151.008 E.31559
G1 X166.082 Y150.524 F15000
G1 F3000
G1 X166.082 Y146.976 E.18891
G1 X171.041 Y146.976 E.26404
G1 X171.041 Y150.524 E.18891
G1 X166.082 Y150.524 E.26404
G1 X166.566 Y150.04 F15000
G1 F3000
G1 X166.566 Y147.46 E.13736
G1 X170.557 Y147.46 E.2125
G1 X170.557 Y150.04 E.13736
G1 X166.566 Y150.04 E.2125
G1 X167.05 Y149.556 F15000
G1 F3000
G1 X167.05 Y147.944 E.08582
G1 X170.073 Y147.944 E.16095
G1 X170.073 Y149.556 E.08582
G1 X167.05 Y149.556 E.16095
G1 X167.534 Y149.072 F15000
G1 F3000
G1 X167.534 Y148.428 E.03428
G1 X169.589 Y148.428 E.10941
G1 X169.589 Y149.072 E.03428
G1 X167.534 Y149.072 E.10941
G1 E-.35 F3600
;WIPE_START
G1 F3000
G1 X168.534 Y149.072 E-.15
;WIPE_END
G1 Z.7 F15000
G1 X209.04 Y151.4 Z.7
G1 Z.3
G1 E.5 F2400
G1 F3000
G1 X202.329 Y151.4 E.35734
G1 X202.329 Y146.1 E.2822
G1 X209.04 Y146.1 E.35734
G1 X209.04 Y151.335 E.27873
G1 X202.721 Y151.008 F15000
G1 F3000
G1 X202.721 Y146.492 E.24045
G1 X208.648 Y146.492 E.31559
G1 X208.648 Y151.008 E.24045
G1 X202.721 Y151.008 E.31559
G1 X203.205 Y150.524 F15000
G1 F3000
G1 X203.205 Y146.976 E.18891
G1 X208.164 Y146.976 E.26404
G1 X208.164 Y150.524 E.18891
G1 X203.205 Y150.524 E.26404
G1 X203.689 Y150.04 F15000
G1 F3000
G1 X203.689 Y147.46 E.13736
G1 X207.68 Y147.46 E.2125
G1 X207.68 Y150.04 E.13736
G1 X203.689 Y150.04 E.2125
G1 X204.173 Y149.556 F15000
G1 F3000
G1 X204.173 Y147.944 E.08582
G1 X207.196 Y147.944 E.16095
G1 X207.196 Y149.556 E.08582
G1 X204.173 Y149.556 E.16095
G1 X204.657 Y149.072 F15000
G1 F3000
G1 X204.657 Y148.428 E.03428
G1 X206.712 Y148.428 E.10941
G1 X206.712 Y149.072 E.03428
G1 X204.657 Y149.072 E.10941
G1 E-.35 F3600
;WIPE_START
G1 F3000
G1 X205.657 Y149.072 E-.15
;WIPE_END
G1 Z.7 F15000
G1 X157.639 Y257.586 Z.7
G1 Z.3
G1 E.5 F2400
G1 F3000
G1 X142.361 Y257.586 E.81349
G1 X142.361 Y252.25 E.2841
G1 X157.639 Y252.25 E.81349
G1 X157.639 Y257.52 E.28062
G1 X142.753 Y252.642 F15000
G1 F3000
G1 X157.247 Y252.642 E.77174
G1 X157.247 Y257.194 E.24235
G1 X142.753 Y257.194 E.77174
G1 X142.753 Y252.642 E.24235
G1 X143.237 Y253.126 F15000
G1 F3000
G1 X156.763 Y253.126 E.72019
G1 X156.763 Y256.71 E.1908
G1 X143.237 Y256.71 E.72019
G1 X143.237 Y253.126 E.1908
G1 X143.721 Y253.61 F15000
G1 F3000
G1 X156.279 Y253.61 E.66865
G1 X156.279 Y256.226 E.13926
G1 X143.721 Y256.226 E.66865
G1 X143.721 Y253.61 E.13926
G1 X144.205 Y254.094 F15000
G1 F3000
G1 X155.795 Y254.094 E.61711
G1 X155.795 Y255.742 E.08771
G1 X144.205 Y255.742 E.61711
G1 X144.205 Y254.094 E.08771
G1 X144.689 Y254.578 F15000
G1 F3000
G1 X155.311 Y254.578 E.56556
G1 X155.311 Y255.257 E.03617
G1 X144.689 Y255.257 E.56556
G1 X144.689 Y254.578 E.03617
G1 E-.35 F3600
;WIPE_START
G1 F3000
G1 X144.689 Y255.257 E-.10189
G1 X145.01 Y255.257 E-.04811
;WIPE_END
G1 Z.7 F15000
G1 X141.925 Y254.578 Z.7
G1 Z.3
G1 E.5 F2400
;TYPE:Brim
G1 F3000
G1 X141.925 Y257.676 E.16494
G1 X141.989 Y257.83 E.00888
G1 X142.04 Y257.881 E.00385
G1 X141.249 Y257.832 E.04222
G1 X140.707 Y257.731 E.02937
G1 X75.007 Y257.731 E3.49826
G1 X74.249 Y257.682 E.04045
G1 X73.51 Y257.539 E.04007
G1 X72.796 Y257.302 E.04005
G1 X72.069 Y256.949 E.04301
G1 X71.435 Y256.543 E.04013
G1 X70.858 Y256.059 E.04007
G1 X70.347 Y255.506 E.04007
G1 X69.912 Y254.893 E.04007
G1 X69.559 Y254.229 E.04002
G1 X69.264 Y253.427 E.0455
G1 X69.088 Y252.641 E.04289
G1 X69.019 Y251.742 E.04802
G1 X69.019 Y151.757 E5.32381
G1 X69.068 Y150.999 E.04044
G1 X69.211 Y150.26 E.04007
G1 X69.448 Y149.546 E.04007
G1 X69.786 Y148.845 E.04141
G1 X69.782 Y148.648 E.01048
G1 X69.559 Y148.229 E.02527
G1 X69.249 Y147.375 E.04841
G1 X69.088 Y146.642 E.03998
G1 X69.019 Y145.742 E.04804
G1 X69.019 Y45.757 E5.32381
G1 X69.068 Y44.999 E.04044
G1 X69.211 Y44.26 E.04007
G1 X69.448 Y43.546 E.04005
G1 X69.801 Y42.82 E.04301
G1 X70.207 Y42.185 E.04013
G1 X70.691 Y41.608 E.04007
G1 X71.244 Y41.097 E.04007
G1 X71.857 Y40.662 E.04007
G1 X72.521 Y40.309 E.04002
G1 X73.323 Y40.014 E.0455
G1 X74.109 Y39.838 E.04289
G1 X75.008 Y39.769 E.04802
G1 X224.993 Y39.769 E7.98612
G1 X225.751 Y39.818 E.04044
G1 X226.49 Y39.962 E.04007
G1 X227.204 Y40.198 E.04005
G1 X227.931 Y40.551 E.04301
G1 X228.565 Y40.957 E.04013
G1 X229.142 Y41.441 E.04007
G1 X229.653 Y41.994 E.04007
G1 X230.088 Y42.608 E.04007
G1 X230.441 Y43.271 E.04002
G1 X230.736 Y44.073 E.0455
G1 X230.912 Y44.859 E.04289
G1 X230.981 Y45.758 E.04802
G1 X230.981 Y145.743 E5.32381
G1 X230.932 Y146.501 E.04045
G1 X230.789 Y147.24 E.04007
G1 X230.552 Y147.954 E.04007
G1 X230.214 Y148.655 E.04141
G1 X230.218 Y148.852 E.01048
G1 X230.441 Y149.271 E.02527
G1 X230.751 Y150.125 E.04841
G1 X230.912 Y150.859 E.03998
G1 X230.981 Y151.758 E.04804
G1 X230.981 Y251.743 E5.32381
G1 X230.932 Y252.501 E.04045
G1 X230.789 Y253.24 E.04007
G1 X230.552 Y253.954 E.04005
G1 X230.199 Y254.681 E.04301
G1 X229.793 Y255.316 E.04013
G1 X229.309 Y255.892 E.04007
G1 X228.756 Y256.403 E.04007
G1 X228.143 Y256.838 E.04007
G1 X227.479 Y257.191 E.04002
G1 X226.677 Y257.487 E.0455
G1 X225.891 Y257.663 E.04289
G1 X224.992 Y257.731 E.04802
G1 X159.287 Y257.731 E3.49855
G1 X158.891 Y257.812 E.02148
G1 X157.829 Y257.881 E.05667
G1 X157.857 Y257.738 E.00775
G1 X158.026 Y257.657 E.00998
G1 X158.075 Y257.52 E.00774
G1 X158.075 Y252.205 E.283
G1 X158.113 Y252.194 E.00215
G1 X158.256 Y252.068 E.01015
G1 X225 Y252.068 E3.55386
G1 X225.113 Y252.044 E.00617
G1 X225.244 Y251.94 E.00888
G1 X225.291 Y251.856 E.00516
G1 X225.318 Y251.75 E.0058
G1 X225.309 Y151.69 E5.32783
G1 X225.294 Y151.637 E.00294
G1 X225.19 Y151.506 E.00888
G1 X225.105 Y151.46 E.00516
G1 X225 Y151.432 E.0058
G1 X209.441 Y151.432 E.82845
G1 X209.476 Y151.335 E.00551
G1 X209.476 Y146.068 E.28044
G1 X225 Y146.068 E.82661
G1 X225.113 Y146.044 E.00617
G1 X225.244 Y145.94 E.00888
G1 X225.291 Y145.856 E.00516
G1 X225.318 Y145.75 E.0058
G1 X225.318 Y45.75 E5.32462
G1 X225.294 Y45.637 E.00617
G1 X225.19 Y45.506 E.00888
G1 X225.105 Y45.46 E.00516
G1 X225 Y45.432 E.0058
G1 X75 Y45.432 E7.98693
G1 X74.887 Y45.456 E.00617
G1 X74.756 Y45.56 E.00888
G1 X74.709 Y45.645 E.00516
G1 X74.682 Y45.75 E.0058
G1 X74.691 Y145.81 E5.32783
G1 X74.706 Y145.863 E.00294
G1 X74.81 Y145.994 E.00888
G1 X74.895 Y146.041 E.00516
G1 X75 Y146.068 E.0058
G1 X90.524 Y146.068 E.82661
G1 X90.524 Y151.432 E.28563
G1 X75 Y151.432 E.82661
G1 X74.887 Y151.456 E.00617
G1 X74.756 Y151.56 E.00888
G1 X74.709 Y151.645 E.00516
G1 X74.682 Y151.75 E.0058
G1 X74.682 Y251.75 E5.32462
G1 X74.706 Y251.863 E.00617
G1 X74.81 Y251.994 E.00888
G1 X74.895 Y252.041 E.00516
G1 X75 Y252.068 E.0058
G1 X141.757 Y252.068 E3.55457
G1 X141.81 Y252.144 E.00492
G1 X141.925 Y252.199 E.00681
G1 X141.925 Y254.538 E.12457
G1 X141.49 Y254.538 F15000
G1 F3000
G1 X141.49 Y257.272 E.14555
G1 X141.442 Y257.373 E.00594
G1 X141.338 Y257.401 E.00575
G1 X140.696 Y257.295 E.03464
G1 X75.025 Y257.295 E3.49673
G1 X74.313 Y257.25 E.03799
G1 X73.613 Y257.114 E.03798
G1 X72.953 Y256.894 E.03704
G1 X72.29 Y256.572 E.03925
G1 X71.7 Y256.196 E.03724
G1 X71.165 Y255.749 E.03709
G1 X70.692 Y255.238 E.0371
G1 X70.288 Y254.67 E.03709
G1 X69.961 Y254.059 E.03692
G1 X69.685 Y253.312 E.04238
G1 X69.522 Y252.586 E.03963
G1 X69.455 Y251.72 E.04622
G1 X69.455 Y151.775 E5.3217
G1 X69.5 Y151.063 E.03799
G1 X69.632 Y150.379 E.0371
G1 X69.857 Y149.702 E.03797
G1 X70.172 Y149.048 E.03865
G1 X70.221 Y148.821 E.01237
G1 X70.218 Y148.655 E.00884
G1 X70.159 Y148.43 E.01237
G1 X69.955 Y148.043 E.0233
G1 X69.666 Y147.245 E.0452
G1 X69.519 Y146.569 E.03684
G1 X69.455 Y145.72 E.04531
G1 X69.455 Y45.775 E5.3217
G1 X69.5 Y45.063 E.03799
G1 X69.636 Y44.363 E.03798
G1 X69.856 Y43.703 E.03704
G1 X70.178 Y43.04 E.03925
G1 X70.555 Y42.45 E.03724
G1 X71.001 Y41.915 E.03709
G1 X71.512 Y41.442 E.0371
G1 X72.08 Y41.038 E.03709
G1 X72.692 Y40.711 E.03692
G1 X73.438 Y40.435 E.04238
G1 X74.164 Y40.272 E.03963
G1 X75.03 Y40.205 E.04622
G1 X224.983 Y40.205 E7.98445
G1 X225.704 Y40.252 E.03843
G1 X226.371 Y40.382 E.03621
G1 X227.031 Y40.6 E.03702
G1 X227.71 Y40.928 E.04016
G1 X228.3 Y41.305 E.03724
G1 X228.847 Y41.763 E.03798
G1 X229.308 Y42.263 E.03621
G1 X229.712 Y42.83 E.03709
G1 X230.046 Y43.458 E.03786
G1 X230.315 Y44.188 E.04144
G1 X230.478 Y44.914 E.03963
G1 X230.545 Y45.78 E.04622
G1 X230.545 Y145.725 E5.3217
M73 P0 R139
G1 X230.5 Y146.437 E.03799
G1 X230.368 Y147.121 E.0371
G1 X230.143 Y147.798 E.03797
G1 X229.828 Y148.452 E.03865
G1 X229.779 Y148.679 E.01237
G1 X229.782 Y148.845 E.00884
G1 X229.841 Y149.07 E.01237
G1 X230.045 Y149.457 E.0233
G1 X230.334 Y150.255 E.0452
G1 X230.481 Y150.931 E.03684
G1 X230.545 Y151.78 E.04531
G1 X230.545 Y251.725 E5.3217
G1 X230.5 Y252.437 E.03799
G1 X230.364 Y253.137 E.03798
G1 X230.144 Y253.797 E.03704
G1 X229.822 Y254.461 E.03925
G1 X229.445 Y255.05 E.03724
G1 X228.999 Y255.585 E.03709
G1 X228.488 Y256.058 E.0371
G1 X227.92 Y256.462 E.03709
G1 X227.308 Y256.789 E.03692
G1 X226.562 Y257.065 E.04238
G1 X225.836 Y257.228 E.03963
G1 X224.97 Y257.295 E.04622
G1 X159.298 Y257.295 E3.49678
G1 X158.839 Y257.378 E.02486
G1 X158.649 Y257.392 E.01012
G1 X158.546 Y257.351 E.00594
G1 X158.51 Y257.261 E.00512
G1 X158.51 Y252.634 E.24637
G1 X158.558 Y252.533 E.00594
G1 X158.641 Y252.504 E.0047
G1 X224.99 Y252.504 E3.53283
G1 X225.191 Y252.472 E.01083
G1 X225.397 Y252.375 E.01211
G1 X225.505 Y252.289 E.00738
G1 X225.628 Y252.144 E.01013
G1 X225.713 Y251.958 E.01091
G1 X225.753 Y251.738 E.01187
G1 X225.745 Y151.699 E5.32671
G1 X225.727 Y151.571 E.00688
G1 X225.625 Y151.353 E.0128
G1 X225.539 Y151.245 E.00737
G1 X225.394 Y151.122 E.01013
G1 X225.207 Y151.037 E.01091
G1 X224.988 Y150.997 E.01187
G1 X210.042 Y150.997 E.79582
G1 X209.941 Y150.949 E.00594
G1 X209.911 Y150.866 E.0047
G1 X209.911 Y146.634 E.22533
G1 X209.959 Y146.533 E.00594
G1 X210.042 Y146.504 E.0047
G1 X224.99 Y146.504 E.79592
G1 X225.191 Y146.472 E.01083
G1 X225.397 Y146.375 E.01211
G1 X225.505 Y146.289 E.00738
G1 X225.666 Y146.077 E.01418
G1 X225.738 Y145.862 E.01205
G1 X225.753 Y145.742 E.00647
G1 X225.753 Y45.76 E5.32364
G1 X225.722 Y45.559 E.01083
G1 X225.625 Y45.353 E.01211
G1 X225.539 Y45.245 E.00738
G1 X225.394 Y45.122 E.01013
G1 X225.207 Y45.037 E.01091
G1 X224.988 Y44.997 E.01187
G1 X75.01 Y44.997 E7.98576
G1 X74.809 Y45.028 E.01083
G1 X74.603 Y45.125 E.01211
G1 X74.495 Y45.211 E.00738
G1 X74.334 Y45.423 E.01418
G1 X74.262 Y45.638 E.01205
G1 X74.247 Y45.758 E.00647
G1 X74.255 Y145.801 E5.3269
M73 P1 R139
G1 X74.273 Y145.929 E.00688
G1 X74.375 Y146.147 E.0128
G1 X74.461 Y146.255 E.00737
G1 X74.606 Y146.378 E.01013
G1 X74.793 Y146.463 E.01091
G1 X75.012 Y146.504 E.01187
G1 X89.958 Y146.504 E.79582
G1 X90.059 Y146.551 E.00594
G1 X90.089 Y146.634 E.0047
G1 X90.089 Y150.866 E.22533
G1 X90.041 Y150.967 E.00594
G1 X89.958 Y150.997 E.0047
G1 X75.01 Y150.997 E.79592
G1 X74.809 Y151.028 E.01083
G1 X74.603 Y151.125 E.01211
G1 X74.495 Y151.211 E.00738
G1 X74.334 Y151.423 E.01418
G1 X74.262 Y151.638 E.01205
G1 X74.247 Y151.758 E.00647
G1 X74.247 Y251.74 E5.32364
G1 X74.278 Y251.941 E.01083
G1 X74.375 Y252.147 E.01211
G1 X74.461 Y252.255 E.00738
G1 X74.606 Y252.378 E.01013
G1 X74.793 Y252.463 E.01091
G1 X75.012 Y252.504 E.01187
G1 X141.359 Y252.504 E3.53274
G1 X141.46 Y252.551 E.00594
G1 X141.49 Y252.634 E.0047
G1 X141.49 Y254.498 E.09925
G1 X141.054 Y254.498 F15000
G1 F3000
G1 X141.054 Y256.759 E.12037
G1 X141.007 Y256.86 E.00594
G1 X140.907 Y256.888 E.00554
G1 X140.688 Y256.86 E.01176
G1 X75.043 Y256.86 E3.49531
G1 X74.36 Y256.815 E.03643
G1 X73.716 Y256.689 E.03499
G1 X73.11 Y256.486 E.03403
G1 X72.509 Y256.194 E.03553
G1 X71.965 Y255.848 E.03437
G1 X71.473 Y255.438 E.03412
G1 X71.036 Y254.968 E.03412
G1 X70.664 Y254.447 E.03412
G1 X70.364 Y253.887 E.03381
G1 X70.107 Y253.196 E.03927
G1 X69.956 Y252.53 E.03637
G1 X69.89 Y251.698 E.04441
G1 X69.89 Y151.793 E5.31957
G1 X69.933 Y151.127 E.03556
G1 X70.053 Y150.498 E.0341
G1 X70.265 Y149.858 E.03587
G1 X70.561 Y149.244 E.0363
G1 X70.598 Y149.136 E.00609
G1 X70.656 Y148.803 E.01799
G1 X70.636 Y148.534 E.01438
G1 X70.584 Y148.333 E.01103
G1 X70.351 Y147.858 E.02819
G1 X70.084 Y147.116 E.04202
G1 X69.95 Y146.497 E.0337
G1 X69.89 Y145.699 E.0426
G1 X69.89 Y45.793 E5.3196
G1 X69.935 Y45.111 E.03643
G1 X70.061 Y44.466 E.03499
G1 X70.264 Y43.86 E.03403
G1 X70.556 Y43.26 E.03553
G1 X70.902 Y42.715 E.03437
G1 X71.312 Y42.223 E.03412
G1 X71.782 Y41.787 E.03412
G1 X72.303 Y41.414 E.03412
G1 X72.863 Y41.114 E.03381
G1 X73.554 Y40.857 E.03927
G1 X74.22 Y40.706 E.03637
G1 X75.052 Y40.64 E.04441
G1 X224.965 Y40.641 E7.9823
G1 X225.656 Y40.687 E.03687
G1 X226.269 Y40.807 E.03326
G1 X226.859 Y41.002 E.03312
G1 X227.491 Y41.306 E.03731
G1 X228.035 Y41.652 E.03433
G1 X228.551 Y42.085 E.03588
