; HEADER_BLOCK_START
; generated by OrcaSlicer 1.8.1 on 2024-05-15 at 16:16:18
; total layer number: 124
; HEADER_BLOCK_END

; THUMBNAIL_BLOCK_START

;
; THUMBNAIL_BLOCK_END

; external perimeters extrusion width = 0.42mm
; perimeters extrusion width = 0.45mm
; infill extrusion width = 0.45mm
; solid infill extrusion width = 0.42mm
; top infill extrusion width = 0.42mm
; support material extrusion width = 0.42mm
; first layer extrusion width = 0.50mm

; EXECUTABLE_BLOCK_START
EXCLUDE_OBJECT_DEFINE NAME=20h150l100wv4_v1.stl_id_0_copy_0 CENTER=150,150 POLYGON=[[75,45.7501],[146,44.2499],[154,44.2499],[225,45.7501],[225,251.75],[158,255.75],[142,255.75],[75,251.75],[75,45.7501]]
M73 P0 R159
;TYPE:Custom
M140 S0
M104 S0 
START_PRINT EXTRUDER_TEMP=255 BED_TEMP=85
G90
G21
M83 ; use relative distances for extrusion
; filament start gcode
M106 S0
;LAYER_CHANGE
;Z:0.3
;HEIGHT:0.3
;BEFORE_LAYER_CHANGE
;0.3
G92 E0

G1 E-.5 F3600
;_SET_FAN_SPEED_CHANGING_LAYER
SET_VELOCITY_LIMIT ACCEL=500 ACCEL_TO_DECEL=250
EXCLUDE_OBJECT_START NAME=20h150l100wv4_v1.stl_id_0_copy_0
G1 Z.4 F15000
G1 X97.671 Y151.4
G1 Z.4
G1 Z.3
G1 E.5 F2400
;TYPE:Support
;WIDTH:0.5
G1 F3000
G1 X90.96 Y151.4 E.3464
G1 X90.96 Y146.1 E.27357
G1 X97.671 Y146.1 E.3464
G1 X97.671 Y151.335 E.27019
G1 X97.279 Y151.008 F15000
G1 F3000
G1 X91.352 Y151.008 E.30593
G1 X91.352 Y146.492 E.23309
G1 X97.279 Y146.492 E.30593
G1 X97.279 Y151.008 E.23309
G1 X96.795 Y150.524 F15000
G1 F3000
G1 X91.836 Y150.524 E.25596
G1 X91.836 Y146.976 E.18313
G1 X96.795 Y146.976 E.25596
G1 X96.795 Y150.524 E.18313
G1 X96.311 Y150.04 F15000
G1 F3000
G1 X92.32 Y150.04 E.20599
G1 X92.32 Y147.46 E.13316
G1 X96.311 Y147.46 E.20599
G1 X96.311 Y150.04 E.13316
G1 X95.827 Y149.556 F15000
G1 F3000
G1 X92.804 Y149.556 E.15603
G1 X92.804 Y147.944 E.08319
G1 X95.827 Y147.944 E.15603
G1 X95.827 Y149.556 E.08319
G1 X95.343 Y149.072 F15000
G1 F3000
G1 X93.288 Y149.072 E.10606
G1 X93.288 Y148.428 E.03323
G1 X95.343 Y148.428 E.10606
G1 X95.343 Y149.072 E.03323
G1 E-.35 F3600
;WIPE_START
G1 F3000
G1 X95.343 Y148.428 E-.09656
G1 X94.987 Y148.428 E-.05344
;WIPE_END
G1 Z.7 F15000
G1 X134.794 Y151.4 Z.7
G1 Z.3
G1 E.5 F2400
G1 F3000
G1 X128.083 Y151.4 E.3464
G1 X128.083 Y146.1 E.27357
G1 X134.794 Y146.1 E.3464
G1 X134.794 Y151.335 E.27019
G1 X134.402 Y151.008 F15000
G1 F3000
G1 X128.475 Y151.008 E.30593
G1 X128.475 Y146.492 E.23309
G1 X134.402 Y146.492 E.30593
G1 X134.402 Y151.008 E.23309
G1 X133.918 Y150.524 F15000
G1 F3000
G1 X128.959 Y150.524 E.25596
G1 X128.959 Y146.976 E.18313
G1 X133.918 Y146.976 E.25596
G1 X133.918 Y150.524 E.18313
G1 X133.434 Y150.04 F15000
G1 F3000
G1 X129.443 Y150.04 E.20599
G1 X129.443 Y147.46 E.13316
G1 X133.434 Y147.46 E.20599
G1 X133.434 Y150.04 E.13316
G1 X132.95 Y149.556 F15000
G1 F3000
G1 X129.927 Y149.556 E.15603
G1 X129.927 Y147.944 E.08319
G1 X132.95 Y147.944 E.15603
G1 X132.95 Y149.556 E.08319
G1 X132.466 Y149.072 F15000
G1 F3000
G1 X130.411 Y149.072 E.10606
G1 X130.411 Y148.428 E.03323
G1 X132.466 Y148.428 E.10606
G1 X132.466 Y149.072 E.03323
G1 E-.35 F3600
;WIPE_START
G1 F3000
G1 X132.466 Y148.428 E-.09656
G1 X132.11 Y148.428 E-.05344
;WIPE_END
G1 Z.7 F15000
G1 X171.917 Y151.4 Z.7
G1 Z.3
G1 E.5 F2400
G1 F3000
G1 X165.206 Y151.4 E.3464
G1 X165.206 Y146.1 E.27357
G1 X171.917 Y146.1 E.3464
G1 X171.917 Y151.335 E.27019
G1 X165.598 Y151.008 F15000
G1 F3000
G1 X165.598 Y146.492 E.23309
G1 X171.525 Y146.492 E.30593
G1 X171.525 Y151.008 E.23309
G1 X165.598 Y151.008 E.30593
G1 X166.082 Y150.524 F15000
G1 F3000
G1 X166.082 Y146.976 E.18313
M73 P0 R158
G1 X171.041 Y146.976 E.25596
G1 X171.041 Y150.524 E.18313
G1 X166.082 Y150.524 E.25596
G1 X166.566 Y150.04 F15000
G1 F3000
G1 X166.566 Y147.46 E.13316
G1 X170.557 Y147.46 E.20599
G1 X170.557 Y150.04 E.13316
G1 X166.566 Y150.04 E.20599
G1 X167.05 Y149.556 F15000
G1 F3000
G1 X167.05 Y147.944 E.08319
G1 X170.073 Y147.944 E.15603
G1 X170.073 Y149.556 E.08319
G1 X167.05 Y149.556 E.15603
G1 X167.534 Y149.072 F15000
G1 F3000
G1 X167.534 Y148.428 E.03323
G1 X169.589 Y148.428 E.10606
G1 X169.589 Y149.072 E.03323
G1 X167.534 Y149.072 E.10606
G1 E-.35 F3600
;WIPE_START
G1 F3000
G1 X168.534 Y149.072 E-.15
;WIPE_END
G1 Z.7 F15000
G1 X209.04 Y151.4 Z.7
G1 Z.3
G1 E.5 F2400
G1 F3000
G1 X202.329 Y151.4 E.3464
G1 X202.329 Y146.1 E.27357
G1 X209.04 Y146.1 E.3464
G1 X209.04 Y151.335 E.27019
G1 X202.721 Y151.008 F15000
G1 F3000
G1 X202.721 Y146.492 E.23309
G1 X208.648 Y146.492 E.30593
G1 X208.648 Y151.008 E.23309
G1 X202.721 Y151.008 E.30593
G1 X203.205 Y150.524 F15000
G1 F3000
G1 X203.205 Y146.976 E.18313
G1 X208.164 Y146.976 E.25596
G1 X208.164 Y150.524 E.18313
G1 X203.205 Y150.524 E.25596
G1 X203.689 Y150.04 F15000
G1 F3000
G1 X203.689 Y147.46 E.13316
G1 X207.68 Y147.46 E.20599
G1 X207.68 Y150.04 E.13316
G1 X203.689 Y150.04 E.20599
G1 X204.173 Y149.556 F15000
G1 F3000
G1 X204.173 Y147.944 E.08319
G1 X207.196 Y147.944 E.15603
G1 X207.196 Y149.556 E.08319
G1 X204.173 Y149.556 E.15603
G1 X204.657 Y149.072 F15000
G1 F3000
G1 X204.657 Y148.428 E.03323
G1 X206.712 Y148.428 E.10606
G1 X206.712 Y149.072 E.03323
G1 X204.657 Y149.072 E.10606
G1 E-.35 F3600
;WIPE_START
G1 F3000
G1 X205.657 Y149.072 E-.15
;WIPE_END
G1 Z.7 F15000
G1 X157.639 Y257.586 Z.7
G1 Z.3
G1 E.5 F2400
G1 F3000
G1 X142.361 Y257.586 E.78859
G1 X142.361 Y252.25 E.2754
G1 X157.639 Y252.25 E.78859
G1 X157.639 Y257.52 E.27203
G1 X142.753 Y252.642 F15000
G1 F3000
G1 X157.247 Y252.642 E.74811
G1 X157.247 Y257.194 E.23493
G1 X142.753 Y257.194 E.74811
G1 X142.753 Y252.642 E.23493
G1 X143.237 Y253.126 F15000
G1 F3000
G1 X156.763 Y253.126 E.69815
G1 X156.763 Y256.71 E.18496
G1 X143.237 Y256.71 E.69815
G1 X143.237 Y253.126 E.18496
G1 X143.721 Y253.61 F15000
G1 F3000
G1 X156.279 Y253.61 E.64818
G1 X156.279 Y256.226 E.13499
G1 X143.721 Y256.226 E.64818
G1 X143.721 Y253.61 E.13499
G1 X144.205 Y254.094 F15000
G1 F3000
G1 X155.795 Y254.094 E.59821
G1 X155.795 Y255.742 E.08503
G1 X144.205 Y255.742 E.59821
G1 X144.205 Y254.094 E.08503
G1 X144.689 Y254.578 F15000
G1 F3000
G1 X155.311 Y254.578 E.54825
G1 X155.311 Y255.257 E.03506
G1 X144.689 Y255.257 E.54825
G1 X144.689 Y254.578 E.03506
G1 E-.35 F3600
;WIPE_START
G1 F3000
G1 X144.689 Y255.257 E-.10189
G1 X145.01 Y255.257 E-.04811
;WIPE_END
G1 Z.7 F15000
G1 X144.698 Y263.977 Z.7
G1 Z.3
G1 E.5 F2400
;TYPE:Brim
G1 F3000
G1 X142.016 Y263.98 E.13842
G1 X140.928 Y263.931 E.05623
G1 X140.164 Y263.83 E.0398
G1 X75.005 Y263.83 E3.36325
G1 X73.917 Y263.78 E.05623
G1 X72.842 Y263.633 E.05597
G1 X71.786 Y263.39 E.05597
G1 X70.755 Y263.052 E.05597
G1 X69.758 Y262.622 E.05606
G1 X69.118 Y262.286 E.0373
G1 X68.192 Y261.718 E.0561
G1 X67.323 Y261.069 E.05597
G1 X66.516 Y260.345 E.05597
G1 X65.778 Y259.55 E.05597
G1 X65.115 Y258.692 E.05597
G1 X64.532 Y257.778 E.05597
G1 X64.034 Y256.814 E.05597
G1 X63.626 Y255.81 E.05597
G1 X63.31 Y254.772 E.05597
G1 X63.089 Y253.711 E.05597
G1 X62.965 Y252.632 E.05603
G1 X62.936 Y251.801 E.04291
G1 X62.92 Y151.757 E5.16391
G1 X62.97 Y150.669 E.05623
G1 X63.116 Y149.594 E.05597
G1 X63.297 Y148.809 E.04159
G1 X63.298 Y148.716 E.00481
G1 X63.089 Y147.711 E.053
G1 X62.965 Y146.632 E.05603
G1 X62.936 Y145.801 E.04291
G1 X62.92 Y45.757 E5.16391
G1 X62.97 Y44.669 E.05623
G1 X63.116 Y43.594 E.05597
G1 X63.36 Y42.537 E.05597
G1 X63.697 Y41.507 E.05597
G1 X64.128 Y40.51 E.05606
G1 X64.464 Y39.868 E.03739
G1 X65.032 Y38.942 E.0561
G1 X65.681 Y38.073 E.05597
G1 X66.406 Y37.266 E.05597
G1 X67.2 Y36.528 E.05597
G1 X68.058 Y35.865 E.05597
G1 X68.973 Y35.282 E.05597
G1 X69.936 Y34.784 E.05597
G1 X70.941 Y34.376 E.05597
G1 X71.978 Y34.06 E.05597
G1 X73.039 Y33.839 E.05597
G1 X74.118 Y33.715 E.05603
G1 X74.949 Y33.686 E.04295
G1 X224.994 Y33.671 E7.74472
G1 X226.082 Y33.72 E.05623
G1 X227.156 Y33.867 E.05597
G1 X228.213 Y34.11 E.05597
G1 X229.244 Y34.448 E.05597
G1 X230.241 Y34.878 E.05606
G1 X230.882 Y35.214 E.03736
G1 X231.808 Y35.782 E.0561
G1 X232.677 Y36.431 E.05597
G1 X233.484 Y37.156 E.05597
G1 X234.222 Y37.95 E.05597
G1 X234.885 Y38.808 E.05597
G1 X235.468 Y39.723 E.05597
G1 X235.966 Y40.686 E.05597
G1 X236.374 Y41.691 E.05597
G1 X236.69 Y42.728 E.05597
G1 X236.911 Y43.79 E.05597
G1 X237.035 Y44.868 E.05603
G1 X237.064 Y45.699 E.04291
G1 X237.08 Y145.743 E5.16391
G1 X237.03 Y146.832 E.05623
G1 X236.884 Y147.906 E.05597
G1 X236.703 Y148.691 E.04159
G1 X236.702 Y148.784 E.00481
G1 X236.911 Y149.79 E.053
G1 X237.035 Y150.868 E.05603
G1 X237.064 Y151.699 E.04291
G1 X237.08 Y251.743 E5.16391
G1 X237.03 Y252.832 E.05623
G1 X236.884 Y253.906 E.05597
G1 X236.64 Y254.963 E.05597
G1 X236.303 Y255.993 E.05597
G1 X235.872 Y256.99 E.05606
G1 X235.536 Y257.632 E.03739
G1 X234.968 Y258.558 E.0561
G1 X234.319 Y259.427 E.05597
G1 X233.594 Y260.234 E.05597
G1 X232.8 Y260.972 E.05597
G1 X231.942 Y261.635 E.05597
G1 X231.027 Y262.218 E.05597
G1 X230.064 Y262.716 E.05597
G1 X229.059 Y263.124 E.05597
G1 X228.022 Y263.44 E.05597
G1 X226.961 Y263.661 E.05597
G1 X225.882 Y263.785 E.05603
G1 X225.052 Y263.814 E.04287
G1 X159.862 Y263.829 E3.36487
G1 X158.755 Y263.944 E.05744
G1 X158.061 Y263.964 E.03581
G1 X144.738 Y263.977 E.6877
G1 X144.738 Y263.541 F15000
G1 F3000
G1 X142.029 Y263.544 E.13983
G1 X140.972 Y263.497 E.05458
G1 X140.156 Y263.394 E.04249
G1 X75.018 Y263.394 E3.36216
G1 X73.95 Y263.345 E.05516
G1 X72.915 Y263.203 E.05393
G1 X71.897 Y262.968 E.05393
G1 X70.904 Y262.642 E.05393
G1 X69.95 Y262.23 E.05364
G1 X69.329 Y261.905 E.03617
G1 X68.432 Y261.353 E.05439
G1 X67.595 Y260.728 E.05393
G1 X66.826 Y260.038 E.05332
G1 X66.115 Y259.272 E.05393
G1 X65.475 Y258.446 E.05393
G1 X64.907 Y257.555 E.05454
G1 X64.433 Y256.637 E.05332
G1 X64.039 Y255.669 E.05393
G1 X63.734 Y254.67 E.05393
G1 X63.519 Y253.635 E.05454
G1 X63.4 Y252.605 E.05354
G1 X63.371 Y251.791 E.04201
G1 X63.356 Y151.77 E5.16275
G1 X63.405 Y150.702 E.05516
G1 X63.544 Y149.679 E.05332
G1 X63.719 Y148.917 E.04035
G1 X63.733 Y148.73 E.00967
G1 X63.519 Y147.635 E.05756
G1 X63.4 Y146.605 E.05354
G1 X63.371 Y145.791 E.04201
G1 X63.356 Y45.77 E5.16275
G1 X63.405 Y44.702 E.05516
G1 X63.547 Y43.667 E.05393
G1 X63.781 Y42.649 E.05393
G1 X64.107 Y41.656 E.05393
G1 X64.519 Y40.702 E.05364
G1 X64.845 Y40.08 E.03626
G1 X65.397 Y39.182 E.05439
G1 X66.022 Y38.345 E.05393
G1 X66.713 Y37.576 E.05332
G1 X67.478 Y36.865 E.05393
G1 X68.304 Y36.225 E.05393
G1 X69.195 Y35.657 E.05454
G1 X70.113 Y35.183 E.05332
G1 X71.081 Y34.789 E.05393
G1 X72.08 Y34.484 E.05393
G1 X73.115 Y34.269 E.05454
G1 X74.145 Y34.15 E.05354
G1 X74.955 Y34.122 E.04181
G1 X224.987 Y34.106 E7.7441
G1 X226.037 Y34.154 E.05424
G1 X227.072 Y34.295 E.05393
G1 X228.102 Y34.532 E.05454
G1 X229.095 Y34.858 E.05393
G1 X230.058 Y35.274 E.05414
G1 X230.671 Y35.595 E.03573
G1 X231.558 Y36.14 E.05378
G1 X232.396 Y36.765 E.05393
G1 X233.174 Y37.463 E.05393
G1 X233.885 Y38.228 E.05393
G1 X234.525 Y39.054 E.05393
G1 X235.093 Y39.945 E.05454
G1 X235.572 Y40.874 E.05393
G1 X235.965 Y41.842 E.05393
G1 X236.269 Y42.842 E.05393
G1 X236.481 Y43.865 E.05393
G1 X236.601 Y44.906 E.05408
G1 X236.629 Y45.709 E.04147
G1 X236.644 Y145.731 E5.16275
G1 X236.595 Y146.798 E.05516
G1 X236.456 Y147.822 E.05332
G1 X236.281 Y148.584 E.04035
G1 X236.267 Y148.77 E.00967
G1 X236.481 Y149.865 E.05756
G1 X236.6 Y150.895 E.05354
G1 X236.629 Y151.709 E.04201
G1 X236.644 Y251.731 E5.16275
G1 X236.595 Y252.798 E.05516
G1 X236.453 Y253.833 E.05393
G1 X236.219 Y254.851 E.05393
G1 X235.893 Y255.844 E.05393
G1 X235.481 Y256.798 E.05364
G1 X235.155 Y257.421 E.03626
G1 X234.603 Y258.318 E.05439
G1 X233.978 Y259.155 E.05393
G1 X233.287 Y259.924 E.05332
G1 X232.522 Y260.636 E.05393
G1 X231.696 Y261.275 E.05393
G1 X230.805 Y261.843 E.05454
G1 X229.887 Y262.317 E.05332
G1 X228.919 Y262.711 E.05393
G1 X227.92 Y263.016 E.05393
G1 X226.885 Y263.231 E.05454
G1 X225.855 Y263.35 E.05354
G1 X225.047 Y263.379 E.04173
G1 X159.868 Y263.394 E3.36426
G1 X158.73 Y263.508 E.05903
G1 X158.053 Y263.529 E.03499
G1 X144.778 Y263.541 E.68521
G1 X144.777 Y263.106 F15000
G1 F3000
G1 X142.041 Y263.108 E.14123
G1 X141.015 Y263.063 E.05304
G1 X140.148 Y262.958 E.04508
G1 X75.031 Y262.958 E3.36109
G1 X73.984 Y262.91 E.05408
G1 X72.988 Y262.773 E.05189
G1 X72.009 Y262.546 E.0519
G1 X71.064 Y262.236 E.05129
G1 X70.142 Y261.839 E.05183
G1 X69.541 Y261.524 E.03504
G1 X68.672 Y260.989 E.05267
G1 X67.876 Y260.394 E.05129
G1 X67.136 Y259.731 E.0513
G1 X66.451 Y258.995 E.0519
G1 X65.829 Y258.19 E.0525
G1 X65.283 Y257.332 E.0525
G1 X64.827 Y256.449 E.05129
G1 X64.452 Y255.529 E.05129
G1 X64.158 Y254.567 E.05189
G1 X63.948 Y253.56 E.05311
G1 X63.835 Y252.577 E.05105
G1 X63.807 Y251.781 E.04111
G1 X63.792 Y151.782 E5.16157
G1 X63.84 Y150.736 E.05409
G1 X63.973 Y149.763 E.05069
G1 X64.142 Y149.022 E.0392
G1 X64.166 Y148.768 E.01318
G1 X64.159 Y148.638 E.00674
G1 X63.949 Y147.563 E.0565
G1 X63.835 Y146.577 E.05123
G1 X63.807 Y145.781 E.04111
G1 X63.792 Y45.782 E5.16157
G1 X63.84 Y44.736 E.05408
G1 X63.977 Y43.74 E.05189
G1 X64.203 Y42.76 E.05189
G1 X64.513 Y41.816 E.05129
G1 X64.911 Y40.894 E.05183
G1 X65.226 Y40.291 E.03513
G1 X65.761 Y39.422 E.05267
G1 X66.356 Y38.626 E.05129
G1 X67.02 Y37.886 E.0513
G1 X67.756 Y37.201 E.0519
G1 X68.56 Y36.579 E.0525
G1 X69.418 Y36.033 E.0525
G1 X70.301 Y35.577 E.05129
G1 X71.221 Y35.202 E.05129
G1 X72.183 Y34.908 E.05189
G1 X73.19 Y34.699 E.05311
G1 X74.173 Y34.585 E.05105
G1 X74.96 Y34.557 E.04067
G1 X224.98 Y34.542 E7.74346
G1 X226.003 Y34.589 E.05287
G1 X227 Y34.725 E.0519
G1 X227.99 Y34.954 E.05249
G1 X228.945 Y35.268 E.05189
G1 X229.874 Y35.669 E.05223
G1 X230.459 Y35.976 E.03409
G1 X231.309 Y36.498 E.05147
G1 X232.115 Y37.099 E.0519
G1 X232.864 Y37.77 E.0519
G1 X233.549 Y38.506 E.05189
G1 X234.164 Y39.3 E.05189
G1 X234.711 Y40.158 E.05249
G1 X235.173 Y41.051 E.05189
G1 X235.556 Y41.993 E.0525
G1 X235.848 Y42.955 E.05189
G1 X236.052 Y43.94 E.0519
G1 X236.166 Y44.943 E.05213
G1 X236.193 Y45.719 E.04004
G1 X236.208 Y145.718 E5.16157
G1 X236.16 Y146.764 E.05409
G1 X236.027 Y147.738 E.05069
G1 X235.858 Y148.478 E.0392
G1 X235.834 Y148.732 E.01318
G1 X235.841 Y148.863 E.00674
G1 X236.051 Y149.937 E.0565
G1 X236.165 Y150.923 E.05123
G1 X236.193 Y151.719 E.04111
G1 X236.208 Y251.718 E5.16157
M73 P0 R157
G1 X236.16 Y252.764 E.05408
G1 X236.023 Y253.76 E.05189
G1 X235.797 Y254.74 E.05189
G1 X235.487 Y255.684 E.05129
G1 X235.089 Y256.606 E.05183
G1 X234.774 Y257.209 E.03513
G1 X234.239 Y258.078 E.05267
G1 X233.644 Y258.874 E.05129
G1 X232.98 Y259.614 E.0513
G1 X232.244 Y260.299 E.0519
G1 X231.44 Y260.921 E.0525
G1 X230.582 Y261.468 E.0525
G1 X229.699 Y261.923 E.05129
G1 X228.779 Y262.298 E.05129
G1 X227.817 Y262.592 E.05189
G1 X226.81 Y262.802 E.05311
G1 X225.827 Y262.915 E.05106
G1 X225.037 Y262.943 E.04083
G1 X159.875 Y262.958 E3.36342
G1 X158.706 Y263.073 E.0606
G1 X158.044 Y263.093 E.03419
G1 X144.817 Y263.106 E.68272
G1 X144.817 Y262.67 F15000
G1 F3000
G1 X142.053 Y262.673 E.14264
G1 X141.055 Y262.629 E.05157
G1 X140.14 Y262.523 E.04756
G1 X75.044 Y262.523 E3.36003
G1 X74.018 Y262.475 E.053
G1 X73.061 Y262.343 E.04985
G1 X72.12 Y262.124 E.04986
G1 X71.214 Y261.826 E.04927
G1 X70.334 Y261.447 E.04942
G1 X69.753 Y261.142 E.0339
G1 X68.912 Y260.625 E.05095
G1 X68.157 Y260.06 E.04866
G1 X67.446 Y259.423 E.04927
G1 X66.788 Y258.717 E.04986
G1 X66.182 Y257.934 E.05106
G1 X65.658 Y257.11 E.05044
G1 X65.221 Y256.261 E.04926
G1 X64.865 Y255.388 E.04867
G1 X64.582 Y254.465 E.04984
G1 X64.378 Y253.485 E.05167
G1 X64.271 Y252.55 E.04857
G1 X64.243 Y251.771 E.04021
G1 X64.227 Y151.795 E5.16038
G1 X64.275 Y150.769 E.05302
G1 X64.401 Y149.847 E.04807
G1 X64.576 Y149.057 E.04173
G1 X64.601 Y148.734 E.01673
G1 X64.585 Y148.547 E.00968
G1 X64.379 Y147.492 E.05552
G1 X64.271 Y146.55 E.04893
G1 X64.243 Y145.771 E.04021
G1 X64.227 Y45.795 E5.16038
G1 X64.275 Y44.77 E.053
G1 X64.407 Y43.813 E.04985
G1 X64.625 Y42.872 E.04986
G1 X64.923 Y41.965 E.04927
G1 X65.302 Y41.086 E.04942
G1 X65.608 Y40.503 E.03399
G1 X66.125 Y39.662 E.05094
G1 X66.69 Y38.907 E.04866
G1 X67.327 Y38.196 E.04927
G1 X68.033 Y37.538 E.04986
G1 X68.816 Y36.932 E.05106
G1 X69.641 Y36.408 E.05044
G1 X70.489 Y35.971 E.04926
G1 X71.362 Y35.615 E.04867
