; HEADER_BLOCK_START
; generated by OrcaSlicer 1.8.1 on 2024-05-15 at 16:18:06
; total layer number: 240
; HEADER_BLOCK_END

; THUMBNAIL_BLOCK_START

;
; THUMBNAIL_BLOCK_END

; external perimeters extrusion width = 0.42mm
; perimeters extrusion width = 0.45mm
; infill extrusion width = 0.45mm
; solid infill extrusion width = 0.42mm
; top infill extrusion width = 0.42mm
; support material extrusion width = 0.42mm
; first layer extrusion width = 0.50mm

; EXECUTABLE_BLOCK_START
EXCLUDE_OBJECT_DEFINE NAME=45H145L70W_v1.stl_id_0_copy_0 CENTER=150,150 POLYGON=[[77.5,76.25],[145.5,74.25],[154.5,74.25],[222.5,76.25],[222.5,222.25],[158,225.75],[142,225.75],[77.5,222.25],[77.5,76.25]]
M73 P0 R163
;TYPE:Custom
M140 S0
M104 S0 
START_PRINT EXTRUDER_TEMP=220 BED_TEMP=75
G90
G21
M83 ; use relative distances for extrusion
; filament start gcode
M106 S0
;LAYER_CHANGE
;Z:0.3
;HEIGHT:0.3
;BEFORE_LAYER_CHANGE
;0.3
G92 E0

G1 E-.5 F3600
;_SET_FAN_SPEED_CHANGING_LAYER
SET_VELOCITY_LIMIT ACCEL=500 ACCEL_TO_DECEL=250
EXCLUDE_OBJECT_START NAME=45H145L70W_v1.stl_id_0_copy_0
G1 Z.4 F15000
G1 X100.527 Y151.9
G1 Z.4
G1 Z.3
G1 E.5 F2400
;TYPE:Support
;WIDTH:0.5
G1 F3000
G1 X93.816 Y151.9 E.35734
G1 X93.816 Y146.6 E.2822
G1 X100.527 Y146.6 E.35734
G1 X100.527 Y151.835 E.27873
G1 X100.135 Y151.508 F15000
G1 F3000
G1 X94.208 Y151.508 E.31559
G1 X94.208 Y146.992 E.24045
G1 X100.135 Y146.992 E.31559
G1 X100.135 Y151.508 E.24045
G1 X99.65 Y151.024 F15000
G1 F3000
G1 X94.692 Y151.024 E.26404
G1 X94.692 Y147.476 E.18891
G1 X99.65 Y147.476 E.26404
G1 X99.65 Y151.024 E.18891
G1 X99.166 Y150.54 F15000
G1 F3000
G1 X95.176 Y150.54 E.2125
G1 X95.176 Y147.96 E.13736
G1 X99.166 Y147.96 E.2125
G1 X99.166 Y150.54 E.13736
G1 X98.682 Y150.056 F15000
G1 F3000
G1 X95.66 Y150.056 E.16095
G1 X95.66 Y148.444 E.08582
G1 X98.682 Y148.444 E.16095
G1 X98.682 Y150.056 E.08582
G1 X98.198 Y149.572 F15000
G1 F3000
G1 X96.144 Y149.572 E.10941
G1 X96.144 Y148.928 E.03428
G1 X98.198 Y148.928 E.10941
G1 X98.198 Y149.572 E.03428
G1 E-.35 F3600
;WIPE_START
G1 F3000
G1 X98.198 Y148.928 E-.09656
G1 X97.842 Y148.928 E-.05344
;WIPE_END
G1 Z.7 F15000
G1 X134.794 Y151.9 Z.7
G1 Z.3
G1 E.5 F2400
G1 F3000
G1 X128.083 Y151.9 E.35734
G1 X128.083 Y146.6 E.2822
G1 X134.794 Y146.6 E.35734
G1 X134.794 Y151.835 E.27873
G1 X134.402 Y151.508 F15000
G1 F3000
G1 X128.475 Y151.508 E.31559
G1 X128.475 Y146.992 E.24045
G1 X134.402 Y146.992 E.31559
G1 X134.402 Y151.508 E.24045
G1 X133.918 Y151.024 F15000
G1 F3000
G1 X128.959 Y151.024 E.26404
G1 X128.959 Y147.476 E.18891
G1 X133.918 Y147.476 E.26404
G1 X133.918 Y151.024 E.18891
G1 X133.434 Y150.54 F15000
G1 F3000
G1 X129.443 Y150.54 E.2125
G1 X129.443 Y147.96 E.13736
G1 X133.434 Y147.96 E.2125
G1 X133.434 Y150.54 E.13736
G1 X132.95 Y150.056 F15000
G1 F3000
G1 X129.927 Y150.056 E.16095
G1 X129.927 Y148.444 E.08582
G1 X132.95 Y148.444 E.16095
G1 X132.95 Y150.056 E.08582
G1 X132.466 Y149.572 F15000
G1 F3000
G1 X130.411 Y149.572 E.10941
G1 X130.411 Y148.928 E.03428
G1 X132.466 Y148.928 E.10941
G1 X132.466 Y149.572 E.03428
G1 E-.35 F3600
;WIPE_START
G1 F3000
G1 X132.466 Y148.928 E-.09656
G1 X132.11 Y148.928 E-.05344
;WIPE_END
G1 Z.7 F15000
G1 X171.917 Y151.9 Z.7
G1 Z.3
G1 E.5 F2400
G1 F3000
G1 X165.206 Y151.9 E.35734
G1 X165.206 Y146.6 E.2822
G1 X171.917 Y146.6 E.35734
G1 X171.917 Y151.835 E.27873
G1 X165.598 Y151.508 F15000
G1 F3000
G1 X165.598 Y146.992 E.24045
G1 X171.525 Y146.992 E.31559
G1 X171.525 Y151.508 E.24045
G1 X165.598 Y151.508 E.31559
G1 X166.082 Y151.024 F15000
G1 F3000
G1 X166.082 Y147.476 E.18891
G1 X171.041 Y147.476 E.26404
G1 X171.041 Y151.024 E.18891
G1 X166.082 Y151.024 E.26404
G1 X166.566 Y150.54 F15000
G1 F3000
G1 X166.566 Y147.96 E.13736
G1 X170.557 Y147.96 E.2125
G1 X170.557 Y150.54 E.13736
G1 X166.566 Y150.54 E.2125
G1 X167.05 Y150.056 F15000
G1 F3000
G1 X167.05 Y148.444 E.08582
G1 X170.073 Y148.444 E.16095
G1 X170.073 Y150.056 E.08582
G1 X167.05 Y150.056 E.16095
G1 X167.534 Y149.572 F15000
G1 F3000
G1 X167.534 Y148.928 E.03428
G1 X169.589 Y148.928 E.10941
G1 X169.589 Y149.572 E.03428
G1 X167.534 Y149.572 E.10941
G1 E-.35 F3600
;WIPE_START
G1 F3000
G1 X168.534 Y149.572 E-.15
;WIPE_END
G1 Z.7 F15000
G1 X206.184 Y151.9 Z.7
G1 Z.3
G1 E.5 F2400
G1 F3000
G1 X199.473 Y151.9 E.35734
G1 X199.473 Y146.6 E.2822
G1 X206.184 Y146.6 E.35734
G1 X206.184 Y151.835 E.27873
G1 X199.866 Y151.508 F15000
G1 F3000
G1 X199.866 Y146.992 E.24045
G1 X205.792 Y146.992 E.31559
G1 X205.792 Y151.508 E.24045
G1 X199.866 Y151.508 E.31559
G1 X200.35 Y151.024 F15000
G1 F3000
G1 X200.35 Y147.476 E.18891
G1 X205.308 Y147.476 E.26404
G1 X205.308 Y151.024 E.18891
G1 X200.35 Y151.024 E.26404
G1 X200.834 Y150.54 F15000
G1 F3000
G1 X200.834 Y147.96 E.13736
G1 X204.824 Y147.96 E.2125
G1 X204.824 Y150.54 E.13736
G1 X200.834 Y150.54 E.2125
G1 X201.318 Y150.056 F15000
G1 F3000
G1 X201.318 Y148.444 E.08582
G1 X204.34 Y148.444 E.16095
G1 X204.34 Y150.056 E.08582
G1 X201.318 Y150.056 E.16095
G1 X201.802 Y149.572 F15000
G1 F3000
G1 X201.802 Y148.928 E.03428
G1 X203.856 Y148.928 E.10941
G1 X203.856 Y149.572 E.03428
G1 X201.802 Y149.572 E.10941
G1 E-.35 F3600
;WIPE_START
G1 F3000
G1 X202.802 Y149.572 E-.15
;WIPE_END
G1 Z.7 F15000
G1 X157.639 Y229.029 Z.7
G1 Z.3
G1 E.5 F2400
G1 F3000
G1 X142.361 Y229.029 E.81349
G1 X142.361 Y223.209 E.30994
G1 X157.639 Y223.209 E.81349
G1 X157.639 Y228.964 E.30646
G1 X142.753 Y223.601 F15000
G1 F3000
G1 X157.247 Y223.601 E.77174
G1 X157.247 Y228.637 E.26819
G1 X142.753 Y228.637 E.77174
G1 X142.753 Y223.601 E.26819
G1 X143.237 Y224.085 F15000
G1 F3000
G1 X156.763 Y224.085 E.72019
G1 X156.763 Y228.153 E.21664
G1 X143.237 Y228.153 E.72019
G1 X143.237 Y224.085 E.21664
G1 X143.721 Y224.569 F15000
G1 F3000
G1 X156.279 Y224.569 E.66865
G1 X156.279 Y227.669 E.1651
G1 X143.721 Y227.669 E.66865
G1 X143.721 Y224.569 E.1651
G1 X144.205 Y225.053 F15000
G1 F3000
G1 X155.795 Y225.053 E.61711
G1 X155.795 Y227.185 E.11355
G1 X144.205 Y227.185 E.61711
G1 X144.205 Y225.053 E.11355
G1 X144.689 Y225.537 F15000
G1 F3000
G1 X155.311 Y225.537 E.56556
G1 X155.311 Y226.701 E.06201
G1 X144.689 Y226.701 E.56556
G1 X144.689 Y225.537 E.06201
G1 E-.35 F3600
;WIPE_START
G1 F3000
G1 X144.689 Y226.537 E-.15
;WIPE_END
G1 Z.7 F15000
G1 X144.689 Y230.582 Z.7
G1 Z.3
G1 E.5 F2400
;TYPE:Brim
G1 F3000
G1 X142.006 Y230.582 E.14286
G1 X141.141 Y230.533 E.04615
G1 X140.293 Y230.388 E.04582
G1 X139.469 Y230.149 E.04566
G1 X139.121 Y229.992 E.02034
G1 X139.031 Y229.973 E.00486
G1 X77.506 Y229.973 E3.27598
G1 X76.641 Y229.924 E.04615
G1 X75.793 Y229.779 E.04582
G1 X74.97 Y229.541 E.04563
G1 X73.723 Y228.972 E.07296
G1 X72.997 Y228.515 E.0457
G1 X72.325 Y227.977 E.04582
G1 X71.718 Y227.367 E.04582
G1 X71.183 Y226.693 E.04582
G1 X70.728 Y225.963 E.04582
G1 X70.358 Y225.186 E.04582
G1 X70.074 Y224.357 E.04662
G1 X69.884 Y223.521 E.0457
G1 X69.777 Y222.241 E.06838
G1 X69.777 Y152.256 E3.72642
G1 X69.826 Y151.391 E.04615
G1 X69.971 Y150.543 E.04582
G1 X70.21 Y149.719 E.04566
G1 X70.364 Y149.376 E.02004
G1 X70.371 Y149.215 E.00855
G1 X70.074 Y148.357 E.04835
G1 X69.884 Y147.521 E.04568
G1 X69.777 Y146.241 E.06838
G1 X69.777 Y76.256 E3.72642
G1 X69.826 Y75.391 E.04615
G1 X69.971 Y74.543 E.04582
G1 X70.209 Y73.72 E.04563
G1 X70.778 Y72.473 E.07296
G1 X71.235 Y71.747 E.0457
G1 X71.773 Y71.075 E.04582
G1 X72.383 Y70.468 E.04582
G1 X73.057 Y69.933 E.04582
G1 X73.787 Y69.478 E.04582
G1 X74.564 Y69.108 E.04582
G1 X75.393 Y68.824 E.04662
G1 X76.229 Y68.634 E.0457
G1 X77.509 Y68.527 E.06838
G1 X222.494 Y68.527 E7.71989
G1 X223.359 Y68.576 E.04615
G1 X224.207 Y68.721 E.04582
G1 X225.031 Y68.96 E.04566
G1 X226.193 Y69.482 E.06785
G1 X227.004 Y69.986 E.05081
G1 X227.675 Y70.523 E.04579
G1 X228.282 Y71.133 E.04582
G1 X228.817 Y71.807 E.04582
G1 X229.272 Y72.537 E.04582
G1 X229.642 Y73.314 E.04582
G1 X229.926 Y74.143 E.04662
G1 X230.116 Y74.979 E.0457
G1 X230.223 Y76.259 E.06838
G1 X230.223 Y146.244 E3.72642
G1 X230.174 Y147.109 E.04615
G1 X230.029 Y147.957 E.04582
G1 X229.79 Y148.781 E.04566
G1 X229.636 Y149.124 E.02004
G1 X229.629 Y149.285 E.00855
G1 X229.926 Y150.143 E.04835
G1 X230.116 Y150.979 E.04568
G1 X230.223 Y152.259 E.06838
G1 X230.223 Y222.244 E3.72642
G1 X230.174 Y223.109 E.04615
G1 X230.029 Y223.957 E.04582
G1 X229.791 Y224.78 E.04563
G1 X229.222 Y226.027 E.07296
G1 X228.765 Y226.753 E.0457
G1 X228.227 Y227.425 E.04582
G1 X227.617 Y228.032 E.04582
G1 X226.943 Y228.567 E.04582
G1 X226.213 Y229.022 E.04582
G1 X225.436 Y229.392 E.04582
G1 X224.607 Y229.676 E.04662
G1 X223.771 Y229.866 E.0457
G1 X222.491 Y229.973 E.06838
G1 X161.041 Y229.973 E3.27195
G1 X160.107 Y230.285 E.05243
G1 X159.271 Y230.475 E.04568
G1 X157.991 Y230.582 E.06838
G1 X144.729 Y230.582 E.70613
G1 E-.35 F3600
;WIPE_START
G1 F3000
G1 X143.729 Y230.582 E-.15
;WIPE_END
G1 Z.7 F15000
G1 X142.312 Y230.065 Z.7
G1 Z.3
G1 E.5 F2400
G1 F3000
G1 X142.185 Y230.146 E.00802
G1 X141.183 Y230.098 E.05345
G1 X140.383 Y229.961 E.04319
G1 X139.628 Y229.742 E.04185
G1 X139.204 Y229.565 E.02449
G1 X139.021 Y229.538 E.00982
G1 X77.515 Y229.538 E3.27499
G1 X76.683 Y229.49 E.04438
G1 X75.883 Y229.352 E.04319
G1 X75.113 Y229.127 E.04274
G1 X73.923 Y228.583 E.06967
G1 X73.244 Y228.155 E.04275
G1 X72.611 Y227.647 E.04319
G1 X72.039 Y227.072 E.04319
G1 X71.544 Y226.447 E.04241
G1 X71.115 Y225.759 E.04319
G1 X70.765 Y225.027 E.04318
G1 X70.496 Y224.245 E.04408
G1 X70.317 Y223.463 E.04271
G1 X70.212 Y222.217 E.06656
G1 X70.212 Y152.272 E3.72431
G1 X70.259 Y151.447 E.04398
G1 X70.395 Y150.648 E.04319
G1 X70.617 Y149.878 E.04263
G1 X70.756 Y149.565 E.01824
G1 X70.8 Y149.383 E.01
G1 X70.806 Y149.247 E.00723
G1 X70.779 Y149.061 E.01
G1 X70.492 Y148.23 E.04679
G1 X70.317 Y147.463 E.04191
G1 X70.212 Y146.217 E.06656
G1 X70.212 Y76.272 E3.72431
G1 X70.26 Y75.433 E.04477
G1 X70.398 Y74.633 E.04319
G1 X70.623 Y73.863 E.04274
G1 X71.167 Y72.673 E.06967
G1 X71.595 Y71.994 E.04275
G1 X72.103 Y71.361 E.04319
G1 X72.678 Y70.789 E.04319
G1 X73.303 Y70.294 E.04241
G1 X73.991 Y69.865 E.04319
G1 X74.723 Y69.515 E.04318
G1 X75.505 Y69.246 E.04408
G1 X76.287 Y69.067 E.04271
G1 X77.533 Y68.962 E.06656
G1 X222.485 Y68.962 E7.71817
G1 X223.317 Y69.01 E.04437
G1 X224.117 Y69.148 E.04319
G1 X224.889 Y69.373 E.04282
G1 X225.996 Y69.872 E.06465
G1 X226.745 Y70.338 E.047
G1 X227.389 Y70.853 E.0439
G1 X227.961 Y71.428 E.04319
G1 X228.456 Y72.053 E.04241
G1 X228.885 Y72.741 E.04319
G1 X229.235 Y73.473 E.04318
G1 X229.504 Y74.255 E.04408
G1 X229.683 Y75.037 E.04271
G1 X229.788 Y76.283 E.06656
G1 X229.788 Y146.228 E3.72431
G1 X229.741 Y147.053 E.04398
G1 X229.605 Y147.852 E.04319
G1 X229.383 Y148.622 E.04263
G1 X229.244 Y148.935 E.01824
G1 X229.2 Y149.117 E.01
G1 X229.194 Y149.253 E.00723
G1 X229.221 Y149.439 E.01
G1 X229.508 Y150.27 E.04679
G1 X229.683 Y151.037 E.04191
G1 X229.788 Y152.283 E.06656
G1 X229.788 Y222.228 E3.72431
G1 X229.74 Y223.067 E.04477
G1 X229.602 Y223.867 E.04319
G1 X229.377 Y224.637 E.04274
G1 X228.833 Y225.827 E.06967
G1 X228.405 Y226.506 E.04275
G1 X227.897 Y227.139 E.04319
G1 X227.322 Y227.711 E.04319
G1 X226.697 Y228.206 E.04241
G1 X226.009 Y228.635 E.04319
G1 X225.277 Y228.985 E.04318
G1 X224.495 Y229.254 E.04408
G1 X223.713 Y229.433 E.04271
G1 X222.467 Y229.538 E.06656
G1 X161.052 Y229.538 E3.27013
G1 X160.894 Y229.563 E.00853
G1 X159.983 Y229.866 E.05108
G1 X159.195 Y230.044 E.04306
G1 X157.978 Y230.146 E.06501
G1 X157.709 Y230.146 E.01435
G1 X157.608 Y230.099 E.00594
G1 X157.58 Y229.991 E.00594
G1 X157.68 Y229.888 E.0076
G1 X157.84 Y229.852 E.00873
G1 X157.985 Y229.783 E.00857
G1 X158.12 Y229.685 E.00885
G1 X158.236 Y229.489 E.01216
G1 X158.338 Y229.401 E.00716
G1 X158.441 Y229.234 E.01048
G1 X158.481 Y229.12 E.00642
G1 X158.51 Y228.953 E.00903
G1 X158.51 Y223.439 E.29358
G1 X158.541 Y223.355 E.00478
G1 X158.628 Y223.252 E.00719
G1 X158.709 Y223.079 E.01017
G1 X158.828 Y223.003 E.00747
G1 X222.49 Y223.003 E3.38978
G1 X222.691 Y222.972 E.01083
G1 X222.897 Y222.875 E.01211
G1 X223.005 Y222.789 E.00738
G1 X223.166 Y222.577 E.01418
G1 X223.238 Y222.362 E.01205
G1 X223.253 Y222.242 E.00647
G1 X223.245 Y152.199 E3.72951
G1 X223.227 Y152.071 E.00688
G1 X223.125 Y151.853 E.0128
G1 X223.039 Y151.745 E.00737
G1 X222.894 Y151.622 E.01013
G1 X222.707 Y151.537 E.01091
G1 X222.488 Y151.497 E.01187
G1 X207.186 Y151.497 E.81476
G1 X207.086 Y151.449 E.00594
G1 X207.056 Y151.366 E.0047
G1 X207.056 Y147.134 E.22533
G1 X207.103 Y147.033 E.00594
G1 X207.186 Y147.003 E.0047
G1 X222.49 Y147.003 E.81485
G1 X222.691 Y146.972 E.01083
G1 X222.897 Y146.875 E.01211
G1 X223.005 Y146.789 E.00738
G1 X223.166 Y146.577 E.01418
G1 X223.238 Y146.362 E.01205
M73 P0 R162
G1 X223.253 Y146.242 E.00647
G1 X223.253 Y76.26 E3.72625
G1 X223.222 Y76.059 E.01083
G1 X223.125 Y75.853 E.01211
G1 X223.039 Y75.745 E.00738
G1 X222.824 Y75.582 E.01437
G1 X222.711 Y75.537 E.00647
G1 X222.488 Y75.497 E.01205
G1 X77.51 Y75.497 E7.71953
G1 X77.309 Y75.528 E.01083
G1 X77.103 Y75.625 E.01211
G1 X76.995 Y75.711 E.00738
G1 X76.834 Y75.923 E.01418
G1 X76.762 Y76.138 E.01205
G1 X76.747 Y76.258 E.00647
G1 X76.755 Y146.301 E3.72951
G1 X76.773 Y146.429 E.00688
G1 X76.875 Y146.647 E.0128
G1 X76.961 Y146.755 E.00737
G1 X77.106 Y146.878 E.01013
G1 X77.293 Y146.963 E.01091
G1 X77.512 Y147.003 E.01187
G1 X92.814 Y147.003 E.81476
G1 X92.914 Y147.051 E.00594
G1 X92.944 Y147.134 E.0047
G1 X92.944 Y151.366 E.22533
G1 X92.897 Y151.467 E.00594
G1 X92.814 Y151.497 E.0047
G1 X77.51 Y151.497 E.81485
G1 X77.309 Y151.528 E.01083
G1 X77.103 Y151.625 E.01211
G1 X76.995 Y151.711 E.00738
G1 X76.834 Y151.923 E.01418
G1 X76.762 Y152.138 E.01205
G1 X76.747 Y152.258 E.00647
G1 X76.747 Y222.24 E3.72625
G1 X76.778 Y222.441 E.01083
G1 X76.875 Y222.647 E.01211
G1 X76.961 Y222.755 E.00738
G1 X77.106 Y222.878 E.01013
G1 X77.293 Y222.963 E.01091
G1 X77.512 Y223.003 E.01187
G1 X141.173 Y223.003 E3.38973
G1 X141.292 Y223.078 E.00746
G1 X141.375 Y223.255 E.0104
G1 X141.461 Y223.364 E.0074
G1 X141.49 Y223.445 E.00459
G1 X141.49 Y229.107 E.30145
G1 X141.528 Y229.298 E.01039
G1 X141.582 Y229.428 E.00751
G1 X141.69 Y229.591 E.01039
G1 X141.8 Y229.7 E.00824
G1 X141.962 Y229.809 E.01039
G1 X142.092 Y229.863 E.00751
G1 X142.217 Y229.887 E.00678
G1 X142.307 Y229.954 E.00594
G1 X142.31 Y230.025 E.00381
G1 X141.098 Y229.575 F15000
G1 F3000
G1 X140.975 Y229.621 E.00697
G1 X140.488 Y229.537 E.02631
G1 X139.78 Y229.332 E.03927
G1 X139.378 Y229.166 E.02316
G1 X139.013 Y229.102 E.01972
G1 X77.524 Y229.102 E3.27408
G1 X76.725 Y229.055 E.04259
G1 X75.974 Y228.925 E.04056
G1 X75.257 Y228.714 E.03984
G1 X74.123 Y228.194 E.06639
G1 X73.491 Y227.795 E.03981
G1 X72.897 Y227.318 E.04057
G1 X72.361 Y226.776 E.04058
G1 X71.897 Y226.19 E.03981
G1 X71.501 Y225.556 E.0398
G1 X71.172 Y224.869 E.04055
G1 X70.918 Y224.132 E.04153
G1 X70.751 Y223.405 E.03972
G1 X70.648 Y222.193 E.06473
G1 X70.648 Y152.288 E3.72219
G1 X70.692 Y151.504 E.04183
G1 X70.819 Y150.752 E.04058
G1 X71.025 Y150.037 E.03964
G1 X71.182 Y149.656 E.02195
G1 X71.221 Y149.493 E.00893
G1 X71.24 Y149.276 E.01159
G1 X71.186 Y148.907 E.01983
G1 X70.914 Y148.117 E.0445
G1 X70.751 Y147.405 E.03892
G1 X70.648 Y146.193 E.06473
G1 X70.648 Y76.288 E3.72218
G1 X70.695 Y75.475 E.04338
G1 X70.825 Y74.724 E.04056
G1 X71.036 Y74.007 E.03984
G1 X71.556 Y72.873 E.06639
G1 X71.955 Y72.241 E.03981
G1 X72.432 Y71.647 E.04057
G1 X72.974 Y71.111 E.04058
G1 X73.56 Y70.647 E.03981
G1 X74.194 Y70.251 E.0398
G1 X74.881 Y69.922 E.04055
G1 X75.618 Y69.668 E.04153
G1 X76.345 Y69.501 E.03972
G1 X77.557 Y69.398 E.06473
G1 X222.469 Y69.398 E7.71603
G1 X223.275 Y69.445 E.04299
G1 X224.026 Y69.575 E.04056
G1 X224.746 Y69.787 E.03997
G1 X225.798 Y70.262 E.06146
G1 X226.487 Y70.69 E.0432
G1 X227.103 Y71.183 E.04201
G1 X227.639 Y71.724 E.04056
G1 X228.103 Y72.31 E.03981
G1 X228.499 Y72.944 E.0398
G1 X228.828 Y73.631 E.04055
G1 X229.082 Y74.368 E.04153
G1 X229.249 Y75.095 E.03972
G1 X229.352 Y76.307 E.06473
G1 X229.352 Y146.212 E3.72219
G1 X229.308 Y146.996 E.04183
G1 X229.181 Y147.748 E.04058
G1 X228.975 Y148.463 E.03964
G1 X228.818 Y148.844 E.02195
G1 X228.779 Y149.007 E.00893
G1 X228.76 Y149.224 E.01159
G1 X228.814 Y149.593 E.01983
