; HEADER_BLOCK_START
; generated by OrcaSlicer 1.8.1 on 2024-05-15 at 16:24:03
; total layer number: 226
; HEADER_BLOCK_END

; THUMBNAIL_BLOCK_START

;
; THUMBNAIL_BLOCK_END

; external perimeters extrusion width = 0.40mm
; perimeters extrusion width = 0.45mm
; infill extrusion width = 0.45mm
; solid infill extrusion width = 0.40mm
; top infill extrusion width = 0.40mm
; support material extrusion width = 0.40mm
; first layer extrusion width = 0.50mm

; EXECUTABLE_BLOCK_START
EXCLUDE_OBJECT_DEFINE NAME=45H145L70W_v1.stl_id_0_copy_0 CENTER=110,110 POLYGON=[[37.5,36.25],[105.5,34.25],[114.5,34.25],[182.5,36.25],[182.5,182.25],[118,185.75],[102,185.75],[37.5,182.25],[37.5,36.25]]
M73 P0 R462
;TYPE:Custom
G90 ; use absolute coordinates
M83 ; extruder relative mode
M140 S85 ; set final bed temp
M104 S150 ; set temporary nozzle temp to prevent oozing during homing
G4 S10 ; allow partial nozzle warmup
G28 ; home all axis
G1 Z50 F240
G1 X2 Y10 F3000
M104 S255 ; set final nozzle temp
M190 S85 ; wait for bed temp to stabilize
M109 S255 ; wait for nozzle temp to stabilize
M73 P0 R461
G1 Z0.28 F240
G92 E0
G1 Y140 E10 F1500 ; prime the nozzle
G1 X2.3 F5000
G92 E0
G1 Y10 E10 F1200 ; prime the nozzle
G92 E0
G90
G21
M83 ; use relative distances for extrusion
; filament start gcode
M106 S0
;LAYER_CHANGE
;Z:0.3
;HEIGHT:0.3
;BEFORE_LAYER_CHANGE
;0.3
G92 E0

G1 E-5 F3600
;_SET_FAN_SPEED_CHANGING_LAYER
SET_VELOCITY_LIMIT ACCEL=500 ACCEL_TO_DECEL=250
G1 Z.4 F9000
G1 X24.063 Y23.956
G1 Z.4
G1 Z.3
G1 E5 F2400
;TYPE:Skirt
;WIDTH:0.5
G1 F3000
G1 X25.223 Y22.795 E.08468
G1 X27.343 Y21.128 E.13918
G1 X28.745 Y20.276 E.08468
G1 X30.04 Y19.632 E.07466
G1 X32.576 Y18.716 E.13919
G1 X33.984 Y18.383 E.07466
G1 X35.64 Y18.141 E.08638
G1 X37.315 Y18.051 E.08659
G1 X182.595 Y18.034 E7.49884
G1 X184.04 Y18.099 E.07466
G1 X186.702 Y18.528 E.13919
G1 X188.095 Y18.919 E.07466
G1 X189.452 Y19.421 E.07466
G1 X191.157 Y20.237 E.09758
G1 X192.505 Y21.038 E.08094
G1 X193.688 Y21.882 E.07501
G1 X194.794 Y22.813 E.07466
G1 X195.955 Y23.973 E.08468
G1 X196.888 Y25.078 E.07466
G1 X197.729 Y26.255 E.07466
G1 X199.037 Y28.613 E.13919
G1 X199.59 Y29.95 E.07466
G1 X200.085 Y31.514 E.08468
G1 X200.403 Y32.925 E.07466
G1 X200.609 Y34.389 E.07635
G1 X200.703 Y36.193 E.09322
G1 X200.716 Y182.343 E7.54373
G1 X200.651 Y183.788 E.07466
G1 X200.471 Y185.223 E.07466
G1 X199.831 Y187.843 E.13918
G1 X199.33 Y189.2 E.07466
G1 X198.513 Y190.906 E.09767
G1 X197.712 Y192.255 E.08095
G1 X196.868 Y193.438 E.07501
G1 X195.937 Y194.544 E.07466
G1 X194.777 Y195.705 E.08468
G1 X193.672 Y196.638 E.07466
G1 X192.495 Y197.479 E.07466
G1 X190.137 Y198.787 E.13919
G1 X188.8 Y199.34 E.07466
G1 X187.236 Y199.835 E.08468
G1 X185.825 Y200.153 E.07466
G1 X184.361 Y200.359 E.07635
G1 X182.58 Y200.453 E.09204
G1 X118.091 Y201.061 E3.32882
G1 X101.992 Y201.076 E.83097
G1 X36.152 Y200.416 E3.39859
G1 X34.523 Y200.22 E.08468
G1 X33.107 Y199.925 E.07466
G1 X31.719 Y199.519 E.07466
G1 X30.339 Y198.989 E.0763
G1 X28.843 Y198.263 E.08581
G1 X27.495 Y197.462 E.08093
G1 X26.312 Y196.618 E.07501
G1 X25.206 Y195.687 E.07466
G1 X24.045 Y194.527 E.08468
G1 X22.378 Y192.407 E.13918
G1 X21.526 Y191.005 E.08468
G1 X20.882 Y189.71 E.07466
G1 X19.966 Y187.174 E.13919
G1 X19.633 Y185.766 E.07466
G1 X19.391 Y184.111 E.08638
G1 X19.297 Y182.307 E.09322
G1 X19.284 Y36.157 E7.54373
G1 X19.349 Y34.712 E.07466
G1 X19.529 Y33.277 E.07466
G1 X20.169 Y30.657 E.13918
G1 X20.67 Y29.3 E.07466
G1 X21.487 Y27.594 E.09767
G1 X22.288 Y26.245 E.08095
G1 X23.132 Y25.062 E.07501
G1 X24.038 Y23.986 E.07259
; printing object 45H145L70W v1.stl id:0 copy 0
G1 E-3.5 F3600
;WIPE_START
G1 F3000
G1 X24.743 Y23.277 E-1.5
;WIPE_END
EXCLUDE_OBJECT_START NAME=45H145L70W_v1.stl_id_0_copy_0
G1 Z.7 F9000
G1 X60.952 Y111.9 Z.7
G1 Z.3
G1 E5 F2400
;TYPE:Support
G1 F3000
G1 X51.458 Y111.9 E.49003
G1 X51.458 Y106.6 E.27357
G1 X60.952 Y106.6 E.49003
G1 X60.952 Y111.835 E.27019
G1 X60.56 Y111.508 F9000
G1 F3000
G1 X51.85 Y111.508 E.44956
G1 X51.85 Y106.992 E.23309
G1 X60.56 Y106.992 E.44956
G1 X60.56 Y111.508 E.23309
G1 X60.076 Y111.024 F9000
G1 F3000
G1 X52.334 Y111.024 E.39959
G1 X52.334 Y107.476 E.18313
G1 X60.076 Y107.476 E.39959
G1 X60.076 Y111.024 E.18313
G1 X59.592 Y110.54 F9000
G1 F3000
G1 X52.818 Y110.54 E.34963
G1 X52.818 Y107.96 E.13316
G1 X59.592 Y107.96 E.34963
G1 X59.592 Y110.54 E.13316
G1 X59.108 Y110.056 F9000
G1 F3000
G1 X53.302 Y110.056 E.29966
G1 X53.302 Y108.444 E.08319
G1 X59.108 Y108.444 E.29966
G1 X59.108 Y110.056 E.08319
G1 X58.624 Y109.572 F9000
G1 F3000
G1 X53.786 Y109.572 E.24969
G1 X53.786 Y108.928 E.03323
G1 X58.624 Y108.928 E.24969
G1 X58.624 Y109.572 E.03323
G1 E-3.5 F3600
;WIPE_START
G1 F3000
G1 X58.624 Y108.928 E-.96557
G1 X58.267 Y108.928 E-.53443
;WIPE_END
G1 Z.7 F9000
G1 X94.928 Y111.9 Z.7
G1 Z.3
G1 E5 F2400
G1 F3000
G1 X88.265 Y111.9 E.34389
G1 X88.265 Y106.6 E.27357
G1 X94.928 Y106.6 E.34389
G1 X94.928 Y111.835 E.27019
G1 X94.536 Y111.508 F9000
G1 F3000
G1 X88.657 Y111.508 E.30342
G1 X88.657 Y106.992 E.23309
G1 X94.536 Y106.992 E.30342
G1 X94.536 Y111.508 E.23309
G1 X94.052 Y111.024 F9000
G1 F3000
G1 X89.141 Y111.024 E.25345
G1 X89.141 Y107.476 E.18313
G1 X94.052 Y107.476 E.25345
G1 X94.052 Y111.024 E.18313
G1 X93.568 Y110.54 F9000
G1 F3000
G1 X89.625 Y110.54 E.20348
G1 X89.625 Y107.96 E.13316
G1 X93.568 Y107.96 E.20348
G1 X93.568 Y110.54 E.13316
G1 X93.083 Y110.056 F9000
G1 F3000
G1 X90.109 Y110.056 E.15352
G1 X90.109 Y108.444 E.08319
G1 X93.083 Y108.444 E.15352
G1 X93.083 Y110.056 E.08319
G1 X92.599 Y109.572 F9000
G1 F3000
G1 X90.593 Y109.572 E.10355
G1 X90.593 Y108.928 E.03323
G1 X92.599 Y108.928 E.10355
G1 X92.599 Y109.572 E.03323
G1 E-3.5 F3600
;WIPE_START
G1 F3000
G1 X92.599 Y108.928 E-.96557
G1 X92.243 Y108.928 E-.53443
;WIPE_END
G1 Z.7 F9000
G1 X131.735 Y111.9 Z.7
G1 Z.3
G1 E5 F2400
G1 F3000
G1 X125.072 Y111.9 E.34389
G1 X125.072 Y106.6 E.27357
G1 X131.735 Y106.6 E.34389
G1 X131.735 Y111.835 E.27019
G1 X125.464 Y111.508 F9000
G1 F3000
G1 X125.464 Y106.992 E.23309
G1 X131.343 Y106.992 E.30342
G1 X131.343 Y111.508 E.23309
G1 X125.464 Y111.508 E.30342
G1 X125.948 Y111.024 F9000
G1 F3000
G1 X125.948 Y107.476 E.18313
G1 X130.859 Y107.476 E.25345
G1 X130.859 Y111.024 E.18313
G1 X125.948 Y111.024 E.25345
G1 X126.433 Y110.54 F9000
G1 F3000
G1 X126.433 Y107.96 E.13316
G1 X130.375 Y107.96 E.20348
G1 X130.375 Y110.54 E.13316
G1 X126.433 Y110.54 E.20348
G1 X126.917 Y110.056 F9000
G1 F3000
G1 X126.917 Y108.444 E.08319
G1 X129.891 Y108.444 E.15352
G1 X129.891 Y110.056 E.08319
G1 X126.917 Y110.056 E.15352
G1 X127.401 Y109.572 F9000
G1 F3000
G1 X127.401 Y108.928 E.03323
G1 X129.407 Y108.928 E.10355
G1 X129.407 Y109.572 E.03323
G1 X127.401 Y109.572 E.10355
G1 E-3.5 F3600
;WIPE_START
G1 F3000
G1 X128.401 Y109.572 E-1.5
;WIPE_END
G1 Z.7 F9000
G1 X168.542 Y111.9 Z.7
G1 Z.3
G1 E5 F2400
G1 F3000
G1 X159.048 Y111.9 E.49003
G1 X159.048 Y106.6 E.27357
G1 X168.542 Y106.6 E.49003
G1 X168.542 Y111.835 E.27019
G1 X159.44 Y111.508 F9000
G1 F3000
G1 X159.44 Y106.992 E.23309
G1 X168.15 Y106.992 E.44956
G1 X168.15 Y111.508 E.23309
G1 X159.44 Y111.508 E.44956
G1 X159.924 Y111.024 F9000
G1 F3000
G1 X159.924 Y107.476 E.18313
G1 X167.666 Y107.476 E.39959
G1 X167.666 Y111.024 E.18313
G1 X159.924 Y111.024 E.39959
G1 X160.408 Y110.54 F9000
G1 F3000
G1 X160.408 Y107.96 E.13316
G1 X167.182 Y107.96 E.34963
G1 X167.182 Y110.54 E.13316
G1 X160.408 Y110.54 E.34963
G1 X160.892 Y110.056 F9000
M73 P0 R460
G1 F3000
G1 X160.892 Y108.444 E.08319
G1 X166.698 Y108.444 E.29966
G1 X166.698 Y110.056 E.08319
G1 X160.892 Y110.056 E.29966
G1 X161.376 Y109.572 F9000
G1 F3000
G1 X161.376 Y108.928 E.03323
G1 X166.214 Y108.928 E.24969
G1 X166.214 Y109.572 E.03323
G1 X161.376 Y109.572 E.24969
G1 E-3.5 F3600
;WIPE_START
G1 F3000
G1 X162.376 Y109.572 E-1.5
;WIPE_END
G1 Z.7 F9000
G1 X117.578 Y188.361 Z.7
G1 Z.3
G1 E5 F2400
G1 F3000
G1 X102.422 Y188.361 E.78232
G1 X102.422 Y183.209 E.26597
G1 X117.578 Y183.209 E.78232
G1 X117.578 Y188.296 E.2626
G1 X102.814 Y183.601 F9000
G1 F3000
G1 X117.186 Y183.601 E.74185
G1 X117.186 Y187.969 E.2255
G1 X102.814 Y187.969 E.74185
G1 X102.814 Y183.601 E.2255
G1 X103.298 Y184.085 F9000
G1 F3000
G1 X116.702 Y184.085 E.69188
G1 X116.702 Y187.485 E.17553
G1 X103.298 Y187.485 E.69188
G1 X103.298 Y184.085 E.17553
G1 X103.782 Y184.569 F9000
G1 F3000
G1 X116.218 Y184.569 E.64191
G1 X116.218 Y187.001 E.12556
G1 X103.782 Y187.001 E.64191
G1 X103.782 Y184.569 E.12556
G1 X104.266 Y185.053 F9000
G1 F3000
G1 X115.734 Y185.053 E.59195
G1 X115.734 Y186.517 E.0756
G1 X104.266 Y186.517 E.59195
G1 X104.266 Y185.053 E.0756
G1 X104.75 Y185.537 F9000
G1 F3000
G1 X115.25 Y185.537 E.54198
G1 X115.25 Y186.033 E.02563
G1 X104.75 Y186.033 E.54198
G1 X104.75 Y185.537 E.02563
G1 E-3.5 F3600
;WIPE_START
G1 F3000
G1 X104.75 Y186.033 E-.74483
G1 X105.253 Y186.033 E-.75517
;WIPE_END
G1 Z.7 F9000
G1 X104.762 Y198.42 Z.7
G1 Z.3
G1 E5 F2400
;TYPE:Brim
G1 F3000
G1 X102.019 Y198.423 E.14159
G1 X100.781 Y198.375 E.06395
G1 X99.555 Y198.228 E.06373
G1 X98.345 Y197.985 E.06373
G1 X97.719 Y197.814 E.03347
G1 X37.504 Y197.814 E3.10806
G1 X36.266 Y197.765 E.06395
G1 X35.041 Y197.617 E.06373
G1 X33.83 Y197.373 E.06373
G1 X32.644 Y197.032 E.06373
G1 X31.489 Y196.598 E.06365
G1 X30.012 Y195.88 E.08478
G1 X28.873 Y195.194 E.06865
G1 X27.872 Y194.472 E.06371
G1 X26.932 Y193.671 E.06373
G1 X26.058 Y192.799 E.06373
G1 X25.257 Y191.859 E.06373
G1 X24.533 Y190.859 E.06373
G1 X23.892 Y189.804 E.06373
G1 X23.337 Y188.701 E.06373
G1 X22.871 Y187.558 E.06373
G1 X22.498 Y186.381 E.06373
G1 X22.221 Y185.178 E.06373
G1 X22.04 Y183.958 E.06365
G1 X21.951 Y182.301 E.08567
G1 X21.936 Y112.258 E3.61535
G1 X21.985 Y111.02 E.06395
G1 X22.132 Y109.794 E.06373
G1 X22.232 Y109.231 E.02949
G1 X22.04 Y107.958 E.06649
G1 X21.951 Y106.301 E.08566
G1 X21.936 Y36.258 E3.61535
G1 X21.985 Y35.02 E.06395
G1 X22.132 Y33.794 E.06373
G1 X22.377 Y32.584 E.06373
G1 X22.717 Y31.397 E.06373
G1 X23.15 Y30.242 E.06365
G1 X23.87 Y28.762 E.08496
G1 X24.556 Y27.623 E.06865
G1 X25.278 Y26.622 E.06371
G1 X26.079 Y25.682 E.06373
G1 X26.951 Y24.808 E.06373
G1 X27.891 Y24.007 E.06373
G1 X28.891 Y23.283 E.06373
G1 X29.946 Y22.642 E.06373
G1 X31.049 Y22.087 E.06373
G1 X32.192 Y21.621 E.06373
G1 X33.369 Y21.248 E.06373
G1 X34.572 Y20.971 E.06373
G1 X35.792 Y20.79 E.06365
G1 X37.451 Y20.701 E.08576
G1 X182.494 Y20.686 E7.48657
G1 X183.732 Y20.735 E.06395
G1 X184.958 Y20.882 E.06373
G1 X186.168 Y21.127 E.06373
G1 X187.355 Y21.467 E.06373
G1 X188.509 Y21.901 E.06365
G1 X189.988 Y22.62 E.08487
G1 X191.127 Y23.306 E.06865
G1 X192.128 Y24.028 E.06371
G1 X193.068 Y24.829 E.06373
G1 X193.942 Y25.701 E.06373
G1 X194.743 Y26.641 E.06373
G1 X195.467 Y27.641 E.06373
G1 X196.108 Y28.696 E.06373
G1 X196.663 Y29.799 E.06373
G1 X197.129 Y30.942 E.06373
G1 X197.502 Y32.119 E.06373
G1 X197.779 Y33.322 E.06373
G1 X197.96 Y34.542 E.06365
G1 X198.049 Y36.199 E.08567
G1 X198.064 Y106.242 E3.61535
G1 X198.015 Y107.48 E.06395
G1 X197.868 Y108.706 E.06373
G1 X197.768 Y109.269 E.02949
G1 X197.96 Y110.542 E.06649
G1 X198.049 Y112.199 E.08566
G1 X198.064 Y182.242 E3.61535
G1 X198.015 Y183.48 E.06395
G1 X197.868 Y184.706 E.06373
G1 X197.623 Y185.916 E.06373
G1 X197.283 Y187.103 E.06373
G1 X196.85 Y188.258 E.06365
G1 X196.13 Y189.738 E.08496
G1 X195.444 Y190.877 E.06865
G1 X194.722 Y191.878 E.06371
G1 X193.921 Y192.818 E.06373
G1 X193.049 Y193.692 E.06373
G1 X192.109 Y194.493 E.06373
G1 X191.109 Y195.217 E.06373
G1 X190.054 Y195.858 E.06373
G1 X188.951 Y196.413 E.06373
G1 X187.808 Y196.879 E.06373
G1 X186.631 Y197.252 E.06373
G1 X185.428 Y197.529 E.06373
G1 X184.208 Y197.71 E.06365
G1 X182.551 Y197.799 E.08566
G1 X122.312 Y197.813 E3.10929
G1 X120.927 Y198.138 E.07343
G1 X119.708 Y198.319 E.06361
G1 X118.062 Y198.408 E.08509
G1 X104.802 Y198.42 E.68442
G1 X104.802 Y197.985 F9000
G1 F3000
G1 X102.025 Y197.987 E.14334
G1 X100.821 Y197.94 E.0622
G1 X99.629 Y197.799 E.06193
G1 X98.449 Y197.561 E.06212
G1 X97.842 Y197.396 E.03249
G1 X97.71 Y197.379 E.00684
G1 X37.516 Y197.379 E3.10703
G1 X36.306 Y197.331 E.06247
G1 X35.115 Y197.188 E.06193
G1 X33.939 Y196.95 E.06193
G1 X32.776 Y196.616 E.06247
G1 X31.656 Y196.195 E.06175
G1 X30.225 Y195.5 E.08211
G1 X29.118 Y194.833 E.06673
G1 X28.145 Y194.132 E.06189
G1 X27.231 Y193.354 E.06193
G1 X26.375 Y192.499 E.06247
G1 X25.603 Y191.594 E.06139
G1 X24.9 Y190.622 E.06193
G1 X24.271 Y189.588 E.06247
G1 X23.732 Y188.516 E.06193
G1 X23.28 Y187.405 E.06193
G1 X22.918 Y186.261 E.06193
G1 X22.65 Y185.102 E.06139
G1 X22.473 Y183.908 E.06229
G1 X22.386 Y182.285 E.08389
G1 X22.371 Y112.269 E3.61399
G1 X22.42 Y111.049 E.06301
G1 X22.563 Y109.862 E.06173
G1 X22.659 Y109.318 E.02849
G1 X22.661 Y109.156 E.00839
G1 X22.473 Y107.907 E.06518
G1 X22.386 Y106.285 E.08383
G1 X22.371 Y36.264 E3.61426
G1 X22.42 Y35.049 E.06274
G1 X22.563 Y33.858 E.06193
G1 X22.802 Y32.682 E.06193
G1 X23.129 Y31.539 E.06139
G1 X23.549 Y30.42 E.06166
G1 X24.25 Y28.975 E.0829
G1 X24.917 Y27.868 E.06673
G1 X25.618 Y26.895 E.06189
G1 X26.396 Y25.981 E.06193
G1 X27.251 Y25.125 E.06247
G1 X28.156 Y24.353 E.06139
G1 X29.128 Y23.65 E.06193
G1 X30.162 Y23.021 E.06247
G1 X31.234 Y22.482 E.06193
G1 X32.345 Y22.03 E.06193
G1 X33.489 Y21.668 E.06193
G1 X34.648 Y21.4 E.06139
G1 X35.842 Y21.223 E.06228
G1 X37.459 Y21.137 E.08361
G1 X182.488 Y21.121 E7.48583
G1 X183.702 Y21.17 E.06274
G1 X184.894 Y21.314 E.06193
G1 X186.07 Y21.552 E.06193
G1 X187.213 Y21.88 E.06139
G1 X188.331 Y22.3 E.06166
G1 X189.775 Y23 E.08282
G1 X190.882 Y23.667 E.06673
G1 X191.855 Y24.368 E.06189
G1 X192.769 Y25.146 E.06193
G1 X193.618 Y25.993 E.06193
G1 X194.397 Y26.906 E.06193
G1 X195.106 Y27.887 E.06247
G1 X195.729 Y28.912 E.06193
G1 X196.264 Y29.974 E.06139
G1 X196.717 Y31.085 E.06193
G1 X197.08 Y32.229 E.06193
G1 X197.35 Y33.398 E.06193
G1 X197.527 Y34.592 E.06229
G1 X197.614 Y36.215 E.08389
G1 X197.629 Y106.231 E3.61399
G1 X197.58 Y107.451 E.06301
G1 X197.437 Y108.638 E.06173
G1 X197.341 Y109.182 E.02849
G1 X197.339 Y109.344 E.00839
G1 X197.527 Y110.593 E.06518
G1 X197.614 Y112.215 E.08383
G1 X197.629 Y182.236 E3.61426
G1 X197.58 Y183.451 E.06274
G1 X197.437 Y184.642 E.06193
G1 X197.198 Y185.818 E.06193
G1 X196.871 Y186.961 E.06139
G1 X196.451 Y188.08 E.06166
G1 X195.75 Y189.525 E.0829
G1 X195.083 Y190.632 E.06673
G1 X194.382 Y191.605 E.06189
G1 X193.604 Y192.519 E.06193
G1 X192.757 Y193.368 E.06193
G1 X191.844 Y194.147 E.06193
G1 X190.863 Y194.856 E.06247
G1 X189.838 Y195.479 E.06193
G1 X188.776 Y196.014 E.06139
G1 X187.665 Y196.467 E.06193
G1 X186.521 Y196.83 E.06193
G1 X185.352 Y197.1 E.06193
G1 X184.158 Y197.277 E.06228
G1 X182.536 Y197.364 E.08387
G1 X122.32 Y197.378 E3.10812
G1 X120.851 Y197.709 E.07772
G1 X119.67 Y197.884 E.06159
G1 X118.047 Y197.972 E.08393
G1 X104.842 Y197.985 E.68158
G1 X104.841 Y197.549 F9000
G1 F3000
G1 X102.03 Y197.552 E.14509
G1 X100.86 Y197.506 E.06046
G1 X99.703 Y197.369 E.06013
G1 X98.554 Y197.138 E.06051
G1 X97.964 Y196.978 E.03152
G1 X97.702 Y196.943 E.01368
G1 X37.527 Y196.943 E3.106
G1 X36.346 Y196.896 E.06099
G1 X35.189 Y196.758 E.06013
G1 X34.037 Y196.525 E.06067
G1 X32.908 Y196.201 E.06066
G1 X31.823 Y195.792 E.05985
G1 X30.439 Y195.119 E.07944
G1 X29.363 Y194.472 E.06481
G1 X28.418 Y193.791 E.06007
G1 X27.531 Y193.037 E.06013
G1 X26.692 Y192.199 E.06121
G1 X25.943 Y191.32 E.0596
G1 X25.266 Y190.385 E.05959
G1 X24.655 Y189.381 E.06066
G1 X24.127 Y188.331 E.06067
G1 X23.688 Y187.252 E.06013
G1 X23.34 Y186.151 E.0596
G1 X23.08 Y185.026 E.05959
G1 X22.907 Y183.859 E.06092
G1 X22.822 Y182.27 E.0821
G1 X22.807 Y112.28 E3.61262
G1 X22.855 Y111.079 E.06206
G1 X22.993 Y109.93 E.05974
G1 X23.087 Y109.403 E.02759
G1 X23.097 Y109.17 E.01205
G1 X22.907 Y107.857 E.06849
G1 X22.822 Y106.27 E.08201
G1 X22.807 Y36.27 E3.61316
G1 X22.854 Y35.089 E.06098
G1 X22.995 Y33.922 E.06067
G1 X23.227 Y32.781 E.06013
G1 X23.545 Y31.671 E.0596
G1 X23.948 Y30.598 E.05914
G1 X24.631 Y29.188 E.08085
G1 X25.278 Y28.113 E.0648
G1 X25.959 Y27.168 E.06007
G1 X26.713 Y26.281 E.06013
G1 X27.551 Y25.442 E.06121
G1 X28.43 Y24.693 E.0596
G1 X29.365 Y24.016 E.05959
