; HEADER_BLOCK_START
; generated by OrcaSlicer 1.8.1 on 2024-05-15 at 16:14:53
; total layer number: 240
; HEADER_BLOCK_END

; THUMBNAIL_BLOCK_START

;
; THUMBNAIL_BLOCK_END

; external perimeters extrusion width = 0.42mm
; perimeters extrusion width = 0.45mm
; infill extrusion width = 0.45mm
; solid infill extrusion width = 0.42mm
; top infill extrusion width = 0.42mm
; support material extrusion width = 0.42mm
; first layer extrusion width = 0.50mm

; EXECUTABLE_BLOCK_START
EXCLUDE_OBJECT_DEFINE NAME=45H145L70W_v1.stl_id_0_copy_0 CENTER=150,150 POLYGON=[[77.5,76.25],[145.5,74.25],[154.5,74.25],[222.5,76.25],[222.5,222.25],[158,225.75],[142,225.75],[77.5,222.25],[77.5,76.25]]
M73 P0 R181
;TYPE:Custom
M140 S0
M104 S0 
START_PRINT EXTRUDER_TEMP=255 BED_TEMP=85
G90
G21
M83 ; use relative distances for extrusion
; filament start gcode
M106 S0
;LAYER_CHANGE
;Z:0.3
;HEIGHT:0.3
;BEFORE_LAYER_CHANGE
;0.3
G92 E0

G1 E-.5 F3600
;_SET_FAN_SPEED_CHANGING_LAYER
SET_VELOCITY_LIMIT ACCEL=500 ACCEL_TO_DECEL=250
EXCLUDE_OBJECT_START NAME=45H145L70W_v1.stl_id_0_copy_0
G1 Z.4 F15000
G1 X100.527 Y151.9
G1 Z.4
G1 Z.3
G1 E.5 F2400
;TYPE:Support
;WIDTH:0.5
G1 F3000
G1 X93.816 Y151.9 E.3464
G1 X93.816 Y146.6 E.27357
G1 X100.527 Y146.6 E.3464
G1 X100.527 Y151.835 E.27019
G1 X100.135 Y151.508 F15000
G1 F3000
G1 X94.208 Y151.508 E.30593
G1 X94.208 Y146.992 E.23309
G1 X100.135 Y146.992 E.30593
G1 X100.135 Y151.508 E.23309
G1 X99.65 Y151.024 F15000
G1 F3000
G1 X94.692 Y151.024 E.25596
G1 X94.692 Y147.476 E.18313
G1 X99.65 Y147.476 E.25596
G1 X99.65 Y151.024 E.18313
G1 X99.166 Y150.54 F15000
G1 F3000
G1 X95.176 Y150.54 E.20599
G1 X95.176 Y147.96 E.13316
G1 X99.166 Y147.96 E.20599
G1 X99.166 Y150.54 E.13316
G1 X98.682 Y150.056 F15000
G1 F3000
G1 X95.66 Y150.056 E.15603
G1 X95.66 Y148.444 E.08319
G1 X98.682 Y148.444 E.15603
G1 X98.682 Y150.056 E.08319
G1 X98.198 Y149.572 F15000
G1 F3000
G1 X96.144 Y149.572 E.10606
G1 X96.144 Y148.928 E.03323
G1 X98.198 Y148.928 E.10606
G1 X98.198 Y149.572 E.03323
G1 E-.35 F3600
;WIPE_START
G1 F3000
G1 X98.198 Y148.928 E-.09656
G1 X97.842 Y148.928 E-.05344
;WIPE_END
G1 Z.7 F15000
G1 X134.794 Y151.9 Z.7
G1 Z.3
G1 E.5 F2400
G1 F3000
G1 X128.083 Y151.9 E.3464
G1 X128.083 Y146.6 E.27357
G1 X134.794 Y146.6 E.3464
G1 X134.794 Y151.835 E.27019
G1 X134.402 Y151.508 F15000
G1 F3000
G1 X128.475 Y151.508 E.30593
G1 X128.475 Y146.992 E.23309
G1 X134.402 Y146.992 E.30593
G1 X134.402 Y151.508 E.23309
G1 X133.918 Y151.024 F15000
G1 F3000
G1 X128.959 Y151.024 E.25596
G1 X128.959 Y147.476 E.18313
G1 X133.918 Y147.476 E.25596
G1 X133.918 Y151.024 E.18313
G1 X133.434 Y150.54 F15000
G1 F3000
G1 X129.443 Y150.54 E.20599
G1 X129.443 Y147.96 E.13316
G1 X133.434 Y147.96 E.20599
G1 X133.434 Y150.54 E.13316
G1 X132.95 Y150.056 F15000
G1 F3000
G1 X129.927 Y150.056 E.15603
G1 X129.927 Y148.444 E.08319
G1 X132.95 Y148.444 E.15603
G1 X132.95 Y150.056 E.08319
G1 X132.466 Y149.572 F15000
G1 F3000
G1 X130.411 Y149.572 E.10606
G1 X130.411 Y148.928 E.03323
G1 X132.466 Y148.928 E.10606
G1 X132.466 Y149.572 E.03323
G1 E-.35 F3600
;WIPE_START
G1 F3000
G1 X132.466 Y148.928 E-.09656
G1 X132.11 Y148.928 E-.05344
;WIPE_END
G1 Z.7 F15000
G1 X171.917 Y151.9 Z.7
G1 Z.3
G1 E.5 F2400
G1 F3000
G1 X165.206 Y151.9 E.3464
G1 X165.206 Y146.6 E.27357
G1 X171.917 Y146.6 E.3464
G1 X171.917 Y151.835 E.27019
G1 X165.598 Y151.508 F15000
G1 F3000
G1 X165.598 Y146.992 E.23309
G1 X171.525 Y146.992 E.30593
G1 X171.525 Y151.508 E.23309
G1 X165.598 Y151.508 E.30593
G1 X166.082 Y151.024 F15000
G1 F3000
G1 X166.082 Y147.476 E.18313
G1 X171.041 Y147.476 E.25596
G1 X171.041 Y151.024 E.18313
G1 X166.082 Y151.024 E.25596
G1 X166.566 Y150.54 F15000
G1 F3000
G1 X166.566 Y147.96 E.13316
G1 X170.557 Y147.96 E.20599
G1 X170.557 Y150.54 E.13316
G1 X166.566 Y150.54 E.20599
G1 X167.05 Y150.056 F15000
G1 F3000
G1 X167.05 Y148.444 E.08319
G1 X170.073 Y148.444 E.15603
G1 X170.073 Y150.056 E.08319
G1 X167.05 Y150.056 E.15603
G1 X167.534 Y149.572 F15000
G1 F3000
G1 X167.534 Y148.928 E.03323
G1 X169.589 Y148.928 E.10606
G1 X169.589 Y149.572 E.03323
G1 X167.534 Y149.572 E.10606
G1 E-.35 F3600
;WIPE_START
G1 F3000
G1 X168.534 Y149.572 E-.15
;WIPE_END
G1 Z.7 F15000
G1 X206.184 Y151.9 Z.7
G1 Z.3
G1 E.5 F2400
G1 F3000
G1 X199.473 Y151.9 E.3464
G1 X199.473 Y146.6 E.27357
G1 X206.184 Y146.6 E.3464
G1 X206.184 Y151.835 E.27019
G1 X199.866 Y151.508 F15000
G1 F3000
G1 X199.866 Y146.992 E.23309
G1 X205.792 Y146.992 E.30593
G1 X205.792 Y151.508 E.23309
G1 X199.866 Y151.508 E.30593
G1 X200.35 Y151.024 F15000
G1 F3000
G1 X200.35 Y147.476 E.18313
G1 X205.308 Y147.476 E.25596
G1 X205.308 Y151.024 E.18313
G1 X200.35 Y151.024 E.25596
G1 X200.834 Y150.54 F15000
G1 F3000
G1 X200.834 Y147.96 E.13316
G1 X204.824 Y147.96 E.20599
G1 X204.824 Y150.54 E.13316
G1 X200.834 Y150.54 E.20599
G1 X201.318 Y150.056 F15000
G1 F3000
G1 X201.318 Y148.444 E.08319
G1 X204.34 Y148.444 E.15603
G1 X204.34 Y150.056 E.08319
G1 X201.318 Y150.056 E.15603
G1 X201.802 Y149.572 F15000
G1 F3000
G1 X201.802 Y148.928 E.03323
G1 X203.856 Y148.928 E.10606
G1 X203.856 Y149.572 E.03323
G1 X201.802 Y149.572 E.10606
G1 E-.35 F3600
;WIPE_START
G1 F3000
G1 X202.802 Y149.572 E-.15
;WIPE_END
G1 Z.7 F15000
G1 X157.639 Y229.029 Z.7
G1 Z.3
G1 E.5 F2400
G1 F3000
G1 X142.361 Y229.029 E.78859
G1 X142.361 Y223.209 E.30045
G1 X157.639 Y223.209 E.78859
G1 X157.639 Y228.964 E.29708
G1 X142.753 Y223.601 F15000
G1 F3000
G1 X157.247 Y223.601 E.74811
G1 X157.247 Y228.637 E.25998
G1 X142.753 Y228.637 E.74811
G1 X142.753 Y223.601 E.25998
G1 X143.237 Y224.085 F15000
G1 F3000
G1 X156.763 Y224.085 E.69815
G1 X156.763 Y228.153 E.21001
G1 X143.237 Y228.153 E.69815
G1 X143.237 Y224.085 E.21001
G1 X143.721 Y224.569 F15000
G1 F3000
G1 X156.279 Y224.569 E.64818
G1 X156.279 Y227.669 E.16004
G1 X143.721 Y227.669 E.64818
G1 X143.721 Y224.569 E.16004
G1 X144.205 Y225.053 F15000
G1 F3000
G1 X155.795 Y225.053 E.59821
G1 X155.795 Y227.185 E.11008
G1 X144.205 Y227.185 E.59821
G1 X144.205 Y225.053 E.11008
G1 X144.689 Y225.537 F15000
G1 F3000
G1 X155.311 Y225.537 E.54825
G1 X155.311 Y226.701 E.06011
G1 X144.689 Y226.701 E.54825
G1 X144.689 Y225.537 E.06011
G1 E-.35 F3600
;WIPE_START
G1 F3000
G1 X144.689 Y226.537 E-.15
;WIPE_END
G1 Z.7 F15000
G1 X144.701 Y238.42 Z.7
G1 Z.3
G1 E.5 F2400
;TYPE:Brim
G1 F3000
G1 X142.019 Y238.423 E.13845
G1 X140.781 Y238.375 E.06395
G1 X139.555 Y238.228 E.06373
G1 X138.345 Y237.985 E.06373
G1 X137.719 Y237.814 E.03347
G1 X77.504 Y237.814 E3.10806
G1 X76.266 Y237.765 E.06395
G1 X75.041 Y237.617 E.06373
G1 X73.83 Y237.373 E.06373
G1 X72.644 Y237.032 E.06373
G1 X71.489 Y236.598 E.06365
G1 X70.012 Y235.88 E.08478
G1 X68.873 Y235.194 E.06865
G1 X67.872 Y234.472 E.06371
G1 X66.932 Y233.671 E.06373
G1 X66.058 Y232.799 E.06373
G1 X65.257 Y231.859 E.06373
G1 X64.533 Y230.859 E.06373
G1 X63.892 Y229.804 E.06373
G1 X63.337 Y228.701 E.06373
G1 X62.871 Y227.558 E.06373
G1 X62.498 Y226.381 E.06373
G1 X62.221 Y225.178 E.06373
G1 X62.04 Y223.958 E.06365
G1 X61.951 Y222.301 E.08567
G1 X61.936 Y152.258 E3.61535
G1 X61.985 Y151.02 E.06395
G1 X62.132 Y149.794 E.06373
G1 X62.232 Y149.231 E.02949
G1 X62.04 Y147.958 E.06649
G1 X61.951 Y146.301 E.08566
G1 X61.936 Y76.258 E3.61535
G1 X61.985 Y75.02 E.06395
G1 X62.132 Y73.794 E.06373
G1 X62.377 Y72.584 E.06373
G1 X62.717 Y71.397 E.06373
G1 X63.15 Y70.242 E.06365
G1 X63.87 Y68.762 E.08496
G1 X64.556 Y67.623 E.06865
G1 X65.278 Y66.622 E.06371
G1 X66.079 Y65.682 E.06373
G1 X66.951 Y64.808 E.06373
G1 X67.891 Y64.007 E.06373
G1 X68.891 Y63.283 E.06373
G1 X69.946 Y62.642 E.06373
G1 X71.049 Y62.087 E.06373
G1 X72.192 Y61.621 E.06373
G1 X73.369 Y61.248 E.06373
G1 X74.572 Y60.971 E.06373
G1 X75.792 Y60.79 E.06365
G1 X77.451 Y60.701 E.08576
G1 X222.494 Y60.686 E7.48657
G1 X223.732 Y60.735 E.06395
G1 X224.958 Y60.882 E.06373
G1 X226.168 Y61.127 E.06373
G1 X227.355 Y61.467 E.06373
G1 X228.509 Y61.901 E.06365
G1 X229.988 Y62.62 E.08487
G1 X231.127 Y63.306 E.06865
G1 X232.128 Y64.028 E.06371
G1 X233.068 Y64.829 E.06373
G1 X233.942 Y65.701 E.06373
G1 X234.743 Y66.641 E.06373
G1 X235.467 Y67.641 E.06373
G1 X236.108 Y68.696 E.06373
G1 X236.663 Y69.799 E.06373
G1 X237.129 Y70.942 E.06373
G1 X237.502 Y72.119 E.06373
G1 X237.779 Y73.322 E.06373
G1 X237.96 Y74.542 E.06365
G1 X238.049 Y76.199 E.08567
G1 X238.064 Y146.242 E3.61535
G1 X238.015 Y147.48 E.06395
G1 X237.868 Y148.706 E.06373
G1 X237.768 Y149.269 E.02949
G1 X237.96 Y150.542 E.06649
G1 X238.049 Y152.199 E.08566
G1 X238.064 Y222.242 E3.61535
G1 X238.015 Y223.48 E.06395
G1 X237.868 Y224.706 E.06373
G1 X237.623 Y225.916 E.06373
G1 X237.283 Y227.103 E.06373
G1 X236.85 Y228.258 E.06365
G1 X236.13 Y229.738 E.08496
G1 X235.444 Y230.877 E.06865
G1 X234.722 Y231.878 E.06371
G1 X233.921 Y232.818 E.06373
G1 X233.049 Y233.692 E.06373
G1 X232.109 Y234.493 E.06373
G1 X231.109 Y235.217 E.06373
G1 X230.054 Y235.858 E.06373
G1 X228.951 Y236.413 E.06373
G1 X227.808 Y236.879 E.06373
G1 X226.631 Y237.252 E.06373
G1 X225.428 Y237.529 E.06373
G1 X224.208 Y237.71 E.06365
G1 X222.551 Y237.799 E.08566
G1 X162.312 Y237.813 E3.10929
G1 X160.927 Y238.138 E.07343
G1 X159.708 Y238.319 E.06361
G1 X158.062 Y238.408 E.08509
G1 X144.741 Y238.42 E.68756
G1 X144.741 Y237.985 F15000
G1 F3000
G1 X142.025 Y237.987 E.1402
G1 X140.821 Y237.94 E.0622
G1 X139.629 Y237.799 E.06193
G1 X138.449 Y237.561 E.06212
G1 X137.842 Y237.396 E.03249
G1 X137.71 Y237.379 E.00684
G1 X77.516 Y237.379 E3.10703
G1 X76.306 Y237.331 E.06247
G1 X75.115 Y237.188 E.06193
G1 X73.939 Y236.95 E.06193
G1 X72.776 Y236.616 E.06247
G1 X71.656 Y236.195 E.06175
G1 X70.225 Y235.5 E.08211
G1 X69.118 Y234.833 E.06673
G1 X68.145 Y234.132 E.06189
G1 X67.231 Y233.354 E.06193
G1 X66.375 Y232.499 E.06247
G1 X65.603 Y231.594 E.06139
G1 X64.9 Y230.622 E.06193
G1 X64.271 Y229.588 E.06247
G1 X63.732 Y228.516 E.06193
G1 X63.28 Y227.405 E.06193
G1 X62.918 Y226.261 E.06193
G1 X62.65 Y225.102 E.06139
G1 X62.473 Y223.908 E.06229
G1 X62.386 Y222.285 E.08389
G1 X62.371 Y152.269 E3.61399
G1 X62.42 Y151.049 E.06301
G1 X62.563 Y149.862 E.06173
G1 X62.659 Y149.318 E.02849
G1 X62.661 Y149.156 E.00839
G1 X62.473 Y147.907 E.06518
G1 X62.386 Y146.285 E.08383
G1 X62.371 Y76.264 E3.61426
M73 P0 R180
G1 X62.42 Y75.049 E.06274
G1 X62.563 Y73.858 E.06193
G1 X62.802 Y72.682 E.06193
G1 X63.129 Y71.539 E.06139
G1 X63.549 Y70.42 E.06166
G1 X64.25 Y68.975 E.0829
G1 X64.917 Y67.868 E.06673
G1 X65.618 Y66.895 E.06189
G1 X66.396 Y65.981 E.06193
G1 X67.251 Y65.125 E.06247
G1 X68.156 Y64.353 E.06139
G1 X69.128 Y63.65 E.06193
G1 X70.162 Y63.021 E.06247
G1 X71.234 Y62.482 E.06193
G1 X72.345 Y62.03 E.06193
G1 X73.489 Y61.668 E.06193
G1 X74.648 Y61.4 E.06139
G1 X75.842 Y61.223 E.06228
G1 X77.459 Y61.137 E.08361
G1 X222.488 Y61.121 E7.48583
G1 X223.702 Y61.17 E.06274
G1 X224.894 Y61.314 E.06193
G1 X226.07 Y61.552 E.06193
G1 X227.213 Y61.88 E.06139
G1 X228.331 Y62.3 E.06166
G1 X229.775 Y63 E.08282
G1 X230.882 Y63.667 E.06673
G1 X231.855 Y64.368 E.06189
G1 X232.769 Y65.146 E.06193
G1 X233.618 Y65.993 E.06193
G1 X234.397 Y66.906 E.06193
G1 X235.106 Y67.887 E.06247
G1 X235.729 Y68.912 E.06193
G1 X236.264 Y69.974 E.06139
G1 X236.717 Y71.085 E.06193
G1 X237.08 Y72.229 E.06193
G1 X237.35 Y73.398 E.06193
G1 X237.527 Y74.592 E.06229
G1 X237.614 Y76.215 E.08389
G1 X237.629 Y146.231 E3.61399
G1 X237.58 Y147.451 E.06301
G1 X237.437 Y148.638 E.06173
G1 X237.341 Y149.182 E.02849
G1 X237.339 Y149.344 E.00839
G1 X237.527 Y150.593 E.06518
G1 X237.614 Y152.215 E.08383
G1 X237.629 Y222.236 E3.61426
G1 X237.58 Y223.451 E.06274
G1 X237.437 Y224.642 E.06193
G1 X237.198 Y225.818 E.06193
G1 X236.871 Y226.961 E.06139
G1 X236.451 Y228.08 E.06166
G1 X235.75 Y229.525 E.0829
G1 X235.083 Y230.632 E.06673
G1 X234.382 Y231.605 E.06189
G1 X233.604 Y232.519 E.06193
G1 X232.757 Y233.368 E.06193
G1 X231.844 Y234.147 E.06193
G1 X230.863 Y234.856 E.06247
G1 X229.838 Y235.479 E.06193
G1 X228.776 Y236.014 E.06139
G1 X227.665 Y236.467 E.06193
G1 X226.521 Y236.83 E.06193
G1 X225.352 Y237.1 E.06193
G1 X224.158 Y237.277 E.06228
G1 X222.536 Y237.364 E.08387
G1 X162.32 Y237.378 E3.10812
G1 X160.851 Y237.709 E.07772
G1 X159.67 Y237.884 E.06159
G1 X158.047 Y237.972 E.08393
G1 X144.781 Y237.985 E.68472
G1 X144.781 Y237.549 F15000
G1 F3000
G1 X142.03 Y237.552 E.14195
G1 X140.86 Y237.506 E.06046
G1 X139.703 Y237.369 E.06013
G1 X138.554 Y237.138 E.06051
G1 X137.964 Y236.978 E.03152
G1 X137.702 Y236.943 E.01368
G1 X77.527 Y236.943 E3.106
G1 X76.346 Y236.896 E.06099
G1 X75.189 Y236.758 E.06013
G1 X74.037 Y236.525 E.06067
G1 X72.908 Y236.201 E.06066
G1 X71.823 Y235.792 E.05985
G1 X70.439 Y235.119 E.07944
G1 X69.363 Y234.472 E.06481
G1 X68.418 Y233.791 E.06007
G1 X67.531 Y233.037 E.06013
G1 X66.692 Y232.199 E.06121
G1 X65.943 Y231.32 E.0596
G1 X65.266 Y230.385 E.05959
G1 X64.655 Y229.381 E.06066
G1 X64.127 Y228.331 E.06067
G1 X63.688 Y227.252 E.06013
G1 X63.34 Y226.151 E.0596
G1 X63.08 Y225.026 E.05959
G1 X62.907 Y223.859 E.06092
G1 X62.822 Y222.27 E.0821
G1 X62.807 Y152.28 E3.61262
G1 X62.855 Y151.079 E.06206
G1 X62.993 Y149.93 E.05974
G1 X63.087 Y149.403 E.02759
G1 X63.097 Y149.17 E.01205
G1 X62.907 Y147.857 E.06849
G1 X62.822 Y146.27 E.08201
G1 X62.807 Y76.27 E3.61316
G1 X62.854 Y75.089 E.06098
G1 X62.995 Y73.922 E.06067
G1 X63.227 Y72.781 E.06013
G1 X63.545 Y71.671 E.0596
G1 X63.948 Y70.598 E.05914
G1 X64.631 Y69.188 E.08085
G1 X65.278 Y68.113 E.0648
G1 X65.959 Y67.168 E.06007
G1 X66.713 Y66.281 E.06013
G1 X67.551 Y65.442 E.06121
G1 X68.43 Y64.693 E.0596
G1 X69.365 Y64.016 E.05959
G1 X70.369 Y63.405 E.06066
G1 X71.419 Y62.877 E.06067
G1 X72.498 Y62.438 E.06013
G1 X73.599 Y62.09 E.0596
G1 X74.724 Y61.83 E.05959
G1 X75.891 Y61.657 E.06092
G1 X77.467 Y61.572 E.08147
G1 X222.482 Y61.557 E7.48509
G1 X223.662 Y61.604 E.06098
G1 X224.829 Y61.745 E.06067
G1 X225.971 Y61.977 E.06014
G1 X227.071 Y62.292 E.05907
G1 X228.154 Y62.698 E.05968
G1 X229.562 Y63.381 E.08076
G1 X230.637 Y64.028 E.0648
G1 X231.582 Y64.709 E.06007
G1 X232.469 Y65.463 E.06013
G1 X233.301 Y66.293 E.06067
G1 X234.057 Y67.18 E.06013
G1 X234.746 Y68.132 E.06066
G1 X235.35 Y69.128 E.06013
G1 X235.869 Y70.16 E.0596
G1 X236.305 Y71.229 E.0596
G1 X236.658 Y72.339 E.06013
G1 X236.922 Y73.484 E.06067
G1 X237.093 Y74.641 E.06037
G1 X237.178 Y76.23 E.0821
G1 X237.193 Y146.22 E3.61262
G1 X237.145 Y147.421 E.06206
G1 X237.007 Y148.57 E.05974
G1 X236.913 Y149.097 E.02759
G1 X236.903 Y149.33 E.01205
G1 X237.093 Y150.643 E.06849
G1 X237.178 Y152.23 E.08201
G1 X237.193 Y222.23 E3.61316
G1 X237.146 Y223.411 E.06098
G1 X237.005 Y224.578 E.06067
G1 X236.773 Y225.719 E.06013
G1 X236.455 Y226.829 E.0596
G1 X236.052 Y227.902 E.05914
G1 X235.369 Y229.312 E.08085
G1 X234.722 Y230.387 E.0648
G1 X234.041 Y231.332 E.06007
G1 X233.287 Y232.219 E.06013
G1 X232.457 Y233.051 E.06067
G1 X231.57 Y233.807 E.06013
G1 X230.618 Y234.496 E.06066
G1 X229.622 Y235.1 E.06013
G1 X228.59 Y235.619 E.0596
G1 X227.521 Y236.055 E.0596
G1 X226.411 Y236.408 E.06013
G1 X225.266 Y236.672 E.06067
G1 X224.109 Y236.843 E.06037
G1 X222.521 Y236.928 E.08209
G1 X162.327 Y236.942 E3.10697
G1 X160.775 Y237.279 E.08194
G1 X159.632 Y237.449 E.05965
G1 X158.031 Y237.537 E.08278
G1 X144.821 Y237.549 E.68187
G1 X144.82 Y237.113 F15000
G1 F3000
G1 X142.036 Y237.116 E.1437
G1 X140.899 Y237.072 E.05872
G1 X139.777 Y236.939 E.05834
G1 X138.658 Y236.715 E.05891
G1 X138.087 Y236.56 E.03055
G1 X137.693 Y236.508 E.02049
G1 X77.538 Y236.508 E3.10497
G1 X76.386 Y236.462 E.05952
G1 X75.264 Y236.328 E.05834
G1 X74.146 Y236.103 E.05886
G1 X73.05 Y235.788 E.05885
G1 X71.99 Y235.389 E.05849
G1 X70.652 Y234.738 E.07679
G1 X69.607 Y234.111 E.06289
G1 X68.691 Y233.451 E.05825
G1 X67.83 Y232.72 E.05832
G1 X67.009 Y231.899 E.05994
G1 X66.283 Y231.047 E.0578
G1 X65.632 Y230.148 E.05727
G1 X65.039 Y229.174 E.05885
G1 X64.522 Y228.146 E.0594
G1 X64.097 Y227.099 E.05833
G1 X63.759 Y226.031 E.05781
G1 X63.509 Y224.95 E.05726
G1 X63.341 Y223.809 E.05955
G1 X63.258 Y222.255 E.08032
G1 X63.242 Y152.292 E3.61125
G1 X63.29 Y151.108 E.06112
G1 X63.424 Y149.997 E.05776
G1 X63.514 Y149.487 E.02676
G1 X63.531 Y149.199 E.01488
G1 X63.341 Y147.808 E.07248
G1 X63.258 Y146.255 E.08027
