; HEADER_BLOCK_START
; generated by OrcaSlicer 1.8.1 on 2024-05-15 at 16:22:55
; total layer number: 226
; HEADER_BLOCK_END

; THUMBNAIL_BLOCK_START

;
; THUMBNAIL_BLOCK_END

; external perimeters extrusion width = 0.40mm
; perimeters extrusion width = 0.45mm
; infill extrusion width = 0.45mm
; solid infill extrusion width = 0.40mm
; top infill extrusion width = 0.40mm
; support material extrusion width = 0.40mm
; first layer extrusion width = 0.50mm

; EXECUTABLE_BLOCK_START
EXCLUDE_OBJECT_DEFINE NAME=45H145L70W_v1.stl_id_0_copy_0 CENTER=110,110 POLYGON=[[37.5,36.25],[105.5,34.25],[114.5,34.25],[182.5,36.25],[182.5,182.25],[118,185.75],[102,185.75],[37.5,182.25],[37.5,36.25]]
M73 P0 R442
;TYPE:Custom
G90 ; use absolute coordinates
M83 ; extruder relative mode
M140 S75 ; set final bed temp
M104 S150 ; set temporary nozzle temp to prevent oozing during homing
G4 S10 ; allow partial nozzle warmup
G28 ; home all axis
G1 Z50 F240
G1 X2 Y10 F3000
M104 S220 ; set final nozzle temp
M190 S75 ; wait for bed temp to stabilize
M109 S220 ; wait for nozzle temp to stabilize
G1 Z0.28 F240
G92 E0
G1 Y140 E10 F1500 ; prime the nozzle
G1 X2.3 F5000
G92 E0
G1 Y10 E10 F1200 ; prime the nozzle
G92 E0
G90
G21
M83 ; use relative distances for extrusion
; filament start gcode
M106 S0
;LAYER_CHANGE
;Z:0.3
;HEIGHT:0.3
;BEFORE_LAYER_CHANGE
;0.3
G92 E0

G1 E-5 F3600
;_SET_FAN_SPEED_CHANGING_LAYER
SET_VELOCITY_LIMIT ACCEL=500 ACCEL_TO_DECEL=250
G1 Z.4 F9000
G1 X29.892 Y29.203
G1 Z.4
G1 Z.3
G1 E5 F2400
;TYPE:Skirt
;WIDTH:0.5
G1 F3000
G1 X30.725 Y28.396 E.06175
G1 X31.644 Y27.688 E.06175
G1 X33.435 Y26.707 E.10875
G1 X34.542 Y26.311 E.06261
G1 X35.656 Y26.043 E.06099
G1 X37.5 Y25.873 E.0986
G1 X182.637 Y25.877 E7.72802
G1 X184.667 Y26.107 E.10875
G1 X186.104 Y26.533 E.07981
G1 X187.582 Y27.221 E.0868
G1 X188.651 Y27.906 E.06762
G1 X189.547 Y28.642 E.06175
G1 X190.354 Y29.475 E.06175
G1 X191.062 Y30.394 E.06175
G1 X192.043 Y32.185 E.10875
G1 X192.439 Y33.292 E.06261
G1 X192.707 Y34.406 E.06099
G1 X192.868 Y36.047 E.08779
G1 X192.877 Y182.25 E7.78477
G1 X192.823 Y183.271 E.05445
G1 X192.643 Y184.417 E.06175
G1 X192.211 Y185.867 E.08055
G1 X191.475 Y187.428 E.09192
G1 X190.844 Y188.401 E.06175
G1 X190.108 Y189.297 E.06175
G1 X189.275 Y190.104 E.06175
G1 X188.356 Y190.812 E.06175
G1 X186.565 Y191.793 E.10875
G1 X185.458 Y192.189 E.06261
G1 X184.344 Y192.457 E.06099
G1 X182.703 Y192.618 E.08779
G1 X118 Y193.235 E3.44536
G1 X101.977 Y193.235 E.85316
G1 X37.363 Y192.623 E3.44063
G1 X35.333 Y192.393 E.10875
G1 X33.883 Y191.961 E.08055
G1 X32.322 Y191.225 E.09192
G1 X31.349 Y190.594 E.06175
G1 X30.453 Y189.858 E.06175
G1 X29.646 Y189.025 E.06175
G1 X28.938 Y188.106 E.06175
G1 X27.957 Y186.315 E.10875
G1 X27.561 Y185.208 E.06261
G1 X27.293 Y184.094 E.06099
G1 X27.123 Y182.25 E.0986
G1 X27.123 Y36.25 E7.77395
G1 X27.177 Y35.229 E.05445
G1 X27.357 Y34.083 E.06175
G1 X27.789 Y32.633 E.08055
G1 X28.525 Y31.072 E.09192
G1 X29.156 Y30.099 E.06175
G1 X29.867 Y29.234 E.05962
; printing object 45H145L70W v1.stl id:0 copy 0
G1 E-3.5 F3600
;WIPE_START
G1 F3000
G1 X30.582 Y28.535 E-1.5
;WIPE_END
EXCLUDE_OBJECT_START NAME=45H145L70W_v1.stl_id_0_copy_0
G1 Z.7 F9000
G1 X60.952 Y111.9 Z.7
G1 Z.3
G1 E5 F2400
;TYPE:Support
G1 F3000
G1 X51.458 Y111.9 E.50551
G1 X51.458 Y106.6 E.2822
G1 X60.952 Y106.6 E.50551
G1 X60.952 Y111.835 E.27873
G1 X60.56 Y111.508 F9000
M73 P0 R441
G1 F3000
G1 X51.85 Y111.508 E.46376
G1 X51.85 Y106.992 E.24045
G1 X60.56 Y106.992 E.46376
G1 X60.56 Y111.508 E.24045
G1 X60.076 Y111.024 F9000
G1 F3000
G1 X52.334 Y111.024 E.41221
G1 X52.334 Y107.476 E.18891
G1 X60.076 Y107.476 E.41221
G1 X60.076 Y111.024 E.18891
G1 X59.592 Y110.54 F9000
G1 F3000
G1 X52.818 Y110.54 E.36067
G1 X52.818 Y107.96 E.13736
G1 X59.592 Y107.96 E.36067
G1 X59.592 Y110.54 E.13736
G1 X59.108 Y110.056 F9000
G1 F3000
G1 X53.302 Y110.056 E.30912
G1 X53.302 Y108.444 E.08582
G1 X59.108 Y108.444 E.30912
G1 X59.108 Y110.056 E.08582
G1 X58.624 Y109.572 F9000
G1 F3000
G1 X53.786 Y109.572 E.25758
G1 X53.786 Y108.928 E.03428
G1 X58.624 Y108.928 E.25758
G1 X58.624 Y109.572 E.03428
G1 E-3.5 F3600
;WIPE_START
G1 F3000
G1 X58.624 Y108.928 E-.96557
G1 X58.267 Y108.928 E-.53443
;WIPE_END
G1 Z.7 F9000
G1 X94.928 Y111.9 Z.7
G1 Z.3
G1 E5 F2400
G1 F3000
G1 X88.265 Y111.9 E.35475
G1 X88.265 Y106.6 E.2822
G1 X94.928 Y106.6 E.35475
G1 X94.928 Y111.835 E.27873
G1 X94.536 Y111.508 F9000
G1 F3000
G1 X88.657 Y111.508 E.313
G1 X88.657 Y106.992 E.24045
G1 X94.536 Y106.992 E.313
G1 X94.536 Y111.508 E.24045
G1 X94.052 Y111.024 F9000
G1 F3000
G1 X89.141 Y111.024 E.26146
G1 X89.141 Y107.476 E.18891
G1 X94.052 Y107.476 E.26146
G1 X94.052 Y111.024 E.18891
G1 X93.568 Y110.54 F9000
G1 F3000
G1 X89.625 Y110.54 E.20991
G1 X89.625 Y107.96 E.13736
G1 X93.568 Y107.96 E.20991
G1 X93.568 Y110.54 E.13736
G1 X93.083 Y110.056 F9000
G1 F3000
G1 X90.109 Y110.056 E.15837
G1 X90.109 Y108.444 E.08582
G1 X93.083 Y108.444 E.15837
G1 X93.083 Y110.056 E.08582
G1 X92.599 Y109.572 F9000
G1 F3000
G1 X90.593 Y109.572 E.10682
G1 X90.593 Y108.928 E.03428
G1 X92.599 Y108.928 E.10682
G1 X92.599 Y109.572 E.03428
G1 E-3.5 F3600
;WIPE_START
G1 F3000
G1 X92.599 Y108.928 E-.96557
G1 X92.243 Y108.928 E-.53443
;WIPE_END
G1 Z.7 F9000
G1 X131.735 Y111.9 Z.7
G1 Z.3
G1 E5 F2400
G1 F3000
G1 X125.072 Y111.9 E.35475
G1 X125.072 Y106.6 E.2822
G1 X131.735 Y106.6 E.35475
G1 X131.735 Y111.835 E.27873
G1 X125.464 Y111.508 F9000
G1 F3000
G1 X125.464 Y106.992 E.24045
G1 X131.343 Y106.992 E.313
G1 X131.343 Y111.508 E.24045
G1 X125.464 Y111.508 E.313
G1 X125.948 Y111.024 F9000
G1 F3000
G1 X125.948 Y107.476 E.18891
G1 X130.859 Y107.476 E.26146
G1 X130.859 Y111.024 E.18891
G1 X125.948 Y111.024 E.26146
G1 X126.433 Y110.54 F9000
G1 F3000
G1 X126.433 Y107.96 E.13736
G1 X130.375 Y107.96 E.20991
G1 X130.375 Y110.54 E.13736
G1 X126.433 Y110.54 E.20991
G1 X126.917 Y110.056 F9000
G1 F3000
G1 X126.917 Y108.444 E.08582
G1 X129.891 Y108.444 E.15837
G1 X129.891 Y110.056 E.08582
G1 X126.917 Y110.056 E.15837
G1 X127.401 Y109.572 F9000
G1 F3000
G1 X127.401 Y108.928 E.03428
G1 X129.407 Y108.928 E.10682
G1 X129.407 Y109.572 E.03428
G1 X127.401 Y109.572 E.10682
G1 E-3.5 F3600
;WIPE_START
G1 F3000
G1 X128.401 Y109.572 E-1.5
;WIPE_END
G1 Z.7 F9000
G1 X168.542 Y111.9 Z.7
G1 Z.3
G1 E5 F2400
G1 F3000
G1 X159.048 Y111.9 E.50551
G1 X159.048 Y106.6 E.2822
G1 X168.542 Y106.6 E.50551
G1 X168.542 Y111.835 E.27873
G1 X159.44 Y111.508 F9000
G1 F3000
G1 X159.44 Y106.992 E.24045
G1 X168.15 Y106.992 E.46376
G1 X168.15 Y111.508 E.24045
G1 X159.44 Y111.508 E.46376
G1 X159.924 Y111.024 F9000
G1 F3000
G1 X159.924 Y107.476 E.18891
G1 X167.666 Y107.476 E.41221
G1 X167.666 Y111.024 E.18891
G1 X159.924 Y111.024 E.41221
G1 X160.408 Y110.54 F9000
G1 F3000
G1 X160.408 Y107.96 E.13736
G1 X167.182 Y107.96 E.36067
G1 X167.182 Y110.54 E.13736
G1 X160.408 Y110.54 E.36067
G1 X160.892 Y110.056 F9000
G1 F3000
G1 X160.892 Y108.444 E.08582
G1 X166.698 Y108.444 E.30912
G1 X166.698 Y110.056 E.08582
G1 X160.892 Y110.056 E.30912
G1 X161.376 Y109.572 F9000
G1 F3000
G1 X161.376 Y108.928 E.03428
G1 X166.214 Y108.928 E.25758
G1 X166.214 Y109.572 E.03428
G1 X161.376 Y109.572 E.25758
G1 E-3.5 F3600
;WIPE_START
G1 F3000
G1 X162.376 Y109.572 E-1.5
;WIPE_END
G1 Z.7 F9000
G1 X117.578 Y188.361 Z.7
G1 Z.3
G1 E5 F2400
G1 F3000
G1 X102.422 Y188.361 E.80702
G1 X102.422 Y183.209 E.27437
G1 X117.578 Y183.209 E.80702
G1 X117.578 Y188.296 E.27089
G1 X102.814 Y183.601 F9000
G1 F3000
G1 X117.186 Y183.601 E.76527
G1 X117.186 Y187.969 E.23262
G1 X102.814 Y187.969 E.76527
G1 X102.814 Y183.601 E.23262
G1 X103.298 Y184.085 F9000
G1 F3000
G1 X116.702 Y184.085 E.71373
G1 X116.702 Y187.485 E.18107
G1 X103.298 Y187.485 E.71373
G1 X103.298 Y184.085 E.18107
G1 X103.782 Y184.569 F9000
G1 F3000
G1 X116.218 Y184.569 E.66218
G1 X116.218 Y187.001 E.12953
G1 X103.782 Y187.001 E.66218
G1 X103.782 Y184.569 E.12953
G1 X104.266 Y185.053 F9000
G1 F3000
G1 X115.734 Y185.053 E.61064
G1 X115.734 Y186.517 E.07798
G1 X104.266 Y186.517 E.61064
G1 X104.266 Y185.053 E.07798
G1 X104.75 Y185.537 F9000
G1 F3000
G1 X115.25 Y185.537 E.55909
G1 X115.25 Y186.033 E.02644
G1 X104.75 Y186.033 E.55909
G1 X104.75 Y185.537 E.02644
G1 E-3.5 F3600
;WIPE_START
G1 F3000
G1 X104.75 Y186.033 E-.74483
G1 X105.253 Y186.033 E-.75517
;WIPE_END
G1 Z.7 F9000
G1 X104.75 Y190.582 Z.7
G1 Z.3
G1 E5 F2400
;TYPE:Brim
G1 F3000
G1 X102.006 Y190.582 E.1461
G1 X101.141 Y190.533 E.04615
G1 X100.293 Y190.388 E.04582
G1 X99.469 Y190.149 E.04566
G1 X99.121 Y189.992 E.02034
G1 X99.031 Y189.973 E.00486
G1 X37.506 Y189.973 E3.27598
G1 X36.641 Y189.924 E.04615
G1 X35.793 Y189.779 E.04582
G1 X34.97 Y189.541 E.04563
G1 X33.723 Y188.972 E.07296
G1 X32.997 Y188.515 E.0457
G1 X32.325 Y187.977 E.04582
G1 X31.718 Y187.367 E.04582
G1 X31.183 Y186.693 E.04582
G1 X30.728 Y185.963 E.04582
G1 X30.358 Y185.186 E.04582
G1 X30.074 Y184.357 E.04662
G1 X29.884 Y183.521 E.0457
G1 X29.777 Y182.241 E.06838
G1 X29.777 Y112.256 E3.72642
G1 X29.826 Y111.391 E.04615
G1 X29.971 Y110.543 E.04582
G1 X30.21 Y109.719 E.04566
G1 X30.364 Y109.376 E.02004
G1 X30.371 Y109.215 E.00855
G1 X30.074 Y108.357 E.04835
G1 X29.884 Y107.521 E.04568
G1 X29.777 Y106.241 E.06838
G1 X29.777 Y36.256 E3.72642
G1 X29.826 Y35.391 E.04615
G1 X29.971 Y34.543 E.04582
G1 X30.209 Y33.72 E.04563
G1 X30.778 Y32.473 E.07296
G1 X31.235 Y31.747 E.0457
G1 X31.773 Y31.075 E.04582
G1 X32.383 Y30.468 E.04582
G1 X33.057 Y29.933 E.04582
G1 X33.787 Y29.478 E.04582
G1 X34.564 Y29.108 E.04582
G1 X35.393 Y28.824 E.04662
G1 X36.229 Y28.634 E.0457
G1 X37.509 Y28.527 E.06838
G1 X182.494 Y28.527 E7.71989
G1 X183.359 Y28.576 E.04615
G1 X184.207 Y28.721 E.04582
G1 X185.031 Y28.96 E.04566
G1 X186.193 Y29.482 E.06785
G1 X187.004 Y29.986 E.05081
G1 X187.675 Y30.523 E.04579
G1 X188.282 Y31.133 E.04582
G1 X188.817 Y31.807 E.04582
G1 X189.272 Y32.537 E.04582
G1 X189.642 Y33.314 E.04582
G1 X189.926 Y34.143 E.04662
G1 X190.116 Y34.979 E.0457
G1 X190.223 Y36.259 E.06838
G1 X190.223 Y106.244 E3.72642
G1 X190.174 Y107.109 E.04615
G1 X190.029 Y107.957 E.04582
G1 X189.79 Y108.781 E.04566
G1 X189.636 Y109.124 E.02004
G1 X189.629 Y109.285 E.00855
G1 X189.926 Y110.143 E.04835
G1 X190.116 Y110.979 E.04568
G1 X190.223 Y112.259 E.06838
G1 X190.223 Y182.244 E3.72642
G1 X190.174 Y183.109 E.04615
G1 X190.029 Y183.957 E.04582
G1 X189.791 Y184.78 E.04563
G1 X189.222 Y186.027 E.07296
G1 X188.765 Y186.753 E.0457
G1 X188.227 Y187.425 E.04582
G1 X187.617 Y188.032 E.04582
G1 X186.943 Y188.567 E.04582
G1 X186.213 Y189.022 E.04582
G1 X185.436 Y189.392 E.04582
G1 X184.607 Y189.676 E.04662
G1 X183.771 Y189.866 E.0457
G1 X182.491 Y189.973 E.06838
G1 X121.041 Y189.973 E3.27195
G1 X120.107 Y190.285 E.05243
G1 X119.271 Y190.475 E.04568
G1 X117.991 Y190.582 E.06838
G1 X104.79 Y190.582 E.7029
G1 X104.79 Y190.146 F9000
G1 F3000
G1 X102.015 Y190.146 E.14777
G1 X101.197 Y190.1 E.04359
G1 X100.398 Y189.964 E.04319
G1 X99.628 Y189.742 E.04263
G1 X99.204 Y189.565 E.02449
G1 X99.021 Y189.538 E.00982
G1 X37.515 Y189.538 E3.27499
G1 X36.683 Y189.49 E.04438
G1 X35.883 Y189.352 E.04319
G1 X35.113 Y189.127 E.04274
G1 X33.923 Y188.583 E.06967
G1 X33.244 Y188.155 E.04275
G1 X32.611 Y187.647 E.04319
G1 X32.039 Y187.072 E.04319
G1 X31.544 Y186.447 E.04241
G1 X31.115 Y185.759 E.04319
G1 X30.765 Y185.027 E.04318
G1 X30.496 Y184.245 E.04408
G1 X30.317 Y183.463 E.04271
G1 X30.212 Y182.217 E.06656
G1 X30.212 Y112.272 E3.72431
G1 X30.259 Y111.447 E.04398
G1 X30.395 Y110.648 E.04319
G1 X30.617 Y109.878 E.04263
G1 X30.756 Y109.565 E.01824
G1 X30.8 Y109.383 E.01
G1 X30.806 Y109.247 E.00723
G1 X30.779 Y109.061 E.01
G1 X30.492 Y108.23 E.04679
G1 X30.317 Y107.463 E.04191
G1 X30.212 Y106.217 E.06656
G1 X30.212 Y36.272 E3.72431
G1 X30.26 Y35.433 E.04477
G1 X30.398 Y34.633 E.04319
G1 X30.623 Y33.863 E.04274
G1 X31.167 Y32.673 E.06967
G1 X31.595 Y31.994 E.04275
G1 X32.103 Y31.361 E.04319
G1 X32.678 Y30.789 E.04319
G1 X33.303 Y30.294 E.04241
G1 X33.991 Y29.865 E.04319
G1 X34.723 Y29.515 E.04318
G1 X35.505 Y29.246 E.04408
G1 X36.287 Y29.067 E.04271
G1 X37.533 Y28.962 E.06656
G1 X182.485 Y28.962 E7.71817
G1 X183.317 Y29.01 E.04437
G1 X184.117 Y29.148 E.04319
G1 X184.889 Y29.373 E.04282
G1 X185.996 Y29.872 E.06465
G1 X186.745 Y30.338 E.047
G1 X187.389 Y30.853 E.0439
G1 X187.961 Y31.428 E.04319
G1 X188.456 Y32.053 E.04241
G1 X188.885 Y32.741 E.04319
G1 X189.235 Y33.473 E.04318
G1 X189.504 Y34.255 E.04408
G1 X189.683 Y35.037 E.04271
G1 X189.788 Y36.283 E.06656
G1 X189.788 Y106.228 E3.72431
G1 X189.741 Y107.053 E.04398
G1 X189.605 Y107.852 E.04319
G1 X189.383 Y108.622 E.04263
G1 X189.244 Y108.935 E.01824
G1 X189.2 Y109.117 E.01
G1 X189.194 Y109.253 E.00723
G1 X189.221 Y109.439 E.01
G1 X189.508 Y110.27 E.04679
G1 X189.683 Y111.037 E.04191
G1 X189.788 Y112.283 E.06656
G1 X189.788 Y182.228 E3.72431
G1 X189.74 Y183.067 E.04477
G1 X189.602 Y183.867 E.04319
G1 X189.377 Y184.637 E.04274
G1 X188.833 Y185.827 E.06967
G1 X188.405 Y186.506 E.04275
G1 X187.897 Y187.139 E.04319
G1 X187.322 Y187.711 E.04319
G1 X186.697 Y188.206 E.04241
G1 X186.009 Y188.635 E.04319
G1 X185.277 Y188.985 E.04318
G1 X184.495 Y189.254 E.04408
G1 X183.713 Y189.433 E.04271
G1 X182.478 Y189.537 E.06598
G1 X121.052 Y189.538 E3.27071
G1 X120.894 Y189.563 E.00853
G1 X119.983 Y189.866 E.05108
G1 X119.213 Y190.041 E.04208
G1 X117.967 Y190.146 E.06656
G1 X104.83 Y190.146 E.69951
G1 E-3.5 F3600
;WIPE_START
G1 F3000
G1 X103.83 Y190.146 E-1.5
;WIPE_END
G1 Z.7 F9000
G1 X101.757 Y189.551 Z.7
G1 Z.3
G1 E5 F2400
G1 F3000
G1 X101.714 Y189.654 E.00594
G1 X101.619 Y189.687 E.00537
G1 X101.239 Y189.665 E.02026
G1 X100.488 Y189.537 E.04059
G1 X99.78 Y189.332 E.03924
G1 X99.378 Y189.166 E.02315
G1 X99.013 Y189.102 E.01972
G1 X37.524 Y189.102 E3.27408
G1 X36.725 Y189.055 E.04259
G1 X35.974 Y188.925 E.04056
G1 X35.257 Y188.714 E.03984
G1 X34.123 Y188.194 E.06639
G1 X33.491 Y187.795 E.03981
G1 X32.897 Y187.318 E.04057
G1 X32.361 Y186.776 E.04058
G1 X31.897 Y186.19 E.03981
G1 X31.501 Y185.556 E.0398
G1 X31.172 Y184.869 E.04055
G1 X30.918 Y184.132 E.04153
G1 X30.751 Y183.405 E.03972
G1 X30.648 Y182.193 E.06473
G1 X30.648 Y112.288 E3.72219
G1 X30.692 Y111.504 E.04183
G1 X30.819 Y110.752 E.04058
G1 X31.025 Y110.037 E.03964
G1 X31.182 Y109.656 E.02195
G1 X31.221 Y109.493 E.00893
G1 X31.24 Y109.276 E.01159
G1 X31.186 Y108.907 E.01983
G1 X30.914 Y108.117 E.0445
G1 X30.751 Y107.405 E.03892
G1 X30.648 Y106.193 E.06473
G1 X30.648 Y36.288 E3.72218
G1 X30.695 Y35.475 E.04338
G1 X30.825 Y34.724 E.04056
G1 X31.036 Y34.007 E.03984
G1 X31.556 Y32.873 E.06639
G1 X31.955 Y32.241 E.03981
G1 X32.432 Y31.647 E.04057
G1 X32.974 Y31.111 E.04058
G1 X33.56 Y30.647 E.03981
G1 X34.194 Y30.251 E.0398
G1 X34.881 Y29.922 E.04055
G1 X35.618 Y29.668 E.04153
G1 X36.345 Y29.501 E.03972
G1 X37.557 Y29.398 E.06473
G1 X182.469 Y29.398 E7.71603
G1 X183.275 Y29.445 E.04299
M73 P0 R440
G1 X184.026 Y29.575 E.04056
G1 X184.746 Y29.787 E.03997
G1 X185.798 Y30.262 E.06146
G1 X186.487 Y30.69 E.0432
G1 X187.103 Y31.183 E.04201
G1 X187.639 Y31.724 E.04056
G1 X188.103 Y32.31 E.03981
G1 X188.499 Y32.944 E.0398
G1 X188.828 Y33.631 E.04055
G1 X189.082 Y34.368 E.04153
G1 X189.249 Y35.095 E.03972
G1 X189.352 Y36.307 E.06473
G1 X189.352 Y106.212 E3.72219
G1 X189.308 Y106.996 E.04183
G1 X189.181 Y107.748 E.04058
G1 X188.975 Y108.463 E.03964
G1 X188.818 Y108.844 E.02195
G1 X188.779 Y109.007 E.00893
G1 X188.76 Y109.224 E.01159
G1 X188.814 Y109.593 E.01983
G1 X189.086 Y110.383 E.0445
G1 X189.249 Y111.095 E.03892
G1 X189.352 Y112.307 E.06473
G1 X189.352 Y182.212 E3.72218
G1 X189.305 Y183.025 E.04338
G1 X189.175 Y183.776 E.04056
G1 X188.964 Y184.493 E.03984
G1 X188.444 Y185.627 E.06639
G1 X188.045 Y186.259 E.03981
G1 X187.568 Y186.853 E.04057
G1 X187.026 Y187.389 E.04058
G1 X186.44 Y187.853 E.03981
G1 X185.806 Y188.249 E.0398
G1 X185.119 Y188.578 E.04055
G1 X184.382 Y188.832 E.04153
G1 X183.655 Y188.999 E.03972
G1 X182.454 Y189.102 E.06415
G1 X121.062 Y189.102 E3.26887
G1 X120.746 Y189.153 E.01705
G1 X119.872 Y189.444 E.04905
G1 X119.137 Y189.61 E.04015
G1 X118.298 Y189.681 E.04481
G1 X118.194 Y189.642 E.00594
G1 X118.157 Y189.537 E.00594
G1 X118.211 Y189.445 E.00564
